(Generated by PartKam Version 0.05)

G20 G90 G40

(profile 1)
G0 Z0.1
T0 M6
G17
M3
G0 X39.7261 Y37.3275
G1 Z-0.38 F36
G1 X37.4359 Y37.3275 F36
G3 X37.3414 Y37.3185 I0 J-0.5043
G3 X37.261 Y37.2945 I0.0771 J-0.4041
G3 X37.1872 Y37.2547 I0.1574 J-0.38
G3 X37.1141 Y37.1942 I0.2835 J-0.4171
G3 X37.0536 Y37.121 I0.3566 J-0.3566
G3 X37.0138 Y37.0472 I0.3402 J-0.2312
G3 X36.9897 Y36.9669 I0.38 J-0.1574
G3 X36.9808 Y36.8724 I0.4954 J-0.0945
G3 X36.9897 Y36.7779 I0.5043 J0
G3 X37.0138 Y36.6976 I0.4041 J0.0771
G3 X37.0536 Y36.6238 I0.38 J0.1574
G3 X37.1141 Y36.5506 I0.4171 J0.2835
G3 X37.1872 Y36.4901 I0.3566 J0.3566
G3 X37.261 Y36.4503 I0.2312 J0.3402
G3 X37.3414 Y36.4263 I0.1574 J0.38
G3 X37.4359 Y36.4173 I0.0945 J0.4954
G1 X39.7261 Y36.4173
G3 X39.8206 Y36.4263 I0 J0.5043
G3 X39.9009 Y36.4503 I-0.0771 J0.4041
G3 X39.9747 Y36.4901 I-0.1574 J0.38
G3 X40.0478 Y36.5506 I-0.2835 J0.4171
G3 X40.1083 Y36.6238 I-0.3566 J0.3566
G3 X40.1482 Y36.6976 I-0.3402 J0.2312
G3 X40.1722 Y36.7779 I-0.38 J0.1574
G3 X40.1811 Y36.8724 I-0.4954 J0.0945
G3 X40.1722 Y36.9669 I-0.5043 J0
G3 X40.1482 Y37.0472 I-0.4041 J-0.0771
G3 X40.1083 Y37.121 I-0.38 J-0.1574
G3 X40.0478 Y37.1942 I-0.4171 J-0.2835
G3 X39.9747 Y37.2547 I-0.3566 J-0.3566
G3 X39.9009 Y37.2945 I-0.2312 J-0.3402
G3 X39.8206 Y37.3185 I-0.1574 J-0.38
G3 X39.7261 Y37.3275 I-0.0945 J-0.4954
G1 Z-0.76 F36
G1 X37.4359 Y37.3275 F36
G3 X37.3414 Y37.3185 I0 J-0.5043
G3 X37.261 Y37.2945 I0.0771 J-0.4041
G3 X37.1872 Y37.2547 I0.1574 J-0.38
G3 X37.1141 Y37.1942 I0.2835 J-0.4171
G3 X37.0536 Y37.121 I0.3566 J-0.3566
G3 X37.0138 Y37.0472 I0.3402 J-0.2312
G3 X36.9897 Y36.9669 I0.38 J-0.1574
G3 X36.9808 Y36.8724 I0.4954 J-0.0945
G3 X36.9897 Y36.7779 I0.5043 J0
G3 X37.0138 Y36.6976 I0.4041 J0.0771
G3 X37.0536 Y36.6238 I0.38 J0.1574
G3 X37.1141 Y36.5506 I0.4171 J0.2835
G3 X37.1872 Y36.4901 I0.3566 J0.3566
G3 X37.261 Y36.4503 I0.2312 J0.3402
G3 X37.3414 Y36.4263 I0.1574 J0.38
G3 X37.4359 Y36.4173 I0.0945 J0.4954
G1 X39.7261 Y36.4173
G3 X39.8206 Y36.4263 I0 J0.5043
G3 X39.9009 Y36.4503 I-0.0771 J0.4041
G3 X39.9747 Y36.4901 I-0.1574 J0.38
G3 X40.0478 Y36.5506 I-0.2835 J0.4171
G3 X40.1083 Y36.6238 I-0.3566 J0.3566
G3 X40.1482 Y36.6976 I-0.3402 J0.2312
G3 X40.1722 Y36.7779 I-0.38 J0.1574
G3 X40.1811 Y36.8724 I-0.4954 J0.0945
G3 X40.1722 Y36.9669 I-0.5043 J0
G3 X40.1482 Y37.0472 I-0.4041 J-0.0771
G3 X40.1083 Y37.121 I-0.38 J-0.1574
G3 X40.0478 Y37.1942 I-0.4171 J-0.2835
G3 X39.9747 Y37.2547 I-0.3566 J-0.3566
G3 X39.9009 Y37.2945 I-0.2312 J-0.3402
G3 X39.8206 Y37.3185 I-0.1574 J-0.38
G3 X39.7261 Y37.3275 I-0.0945 J-0.4954
G0 Z0.1
G0 X28.0672 Y37.2527
G1 Z-0.38 F36
G1 X25.816 Y37.2527 F36
G3 X25.7158 Y37.2432 I0 J-0.5344
G3 X25.6305 Y37.2177 I0.0819 J-0.4293
G3 X25.5521 Y37.1754 I0.1672 J-0.4037
G3 X25.4746 Y37.1113 I0.3004 J-0.442
G3 X25.4105 Y37.0338 I0.3779 J-0.3779
G3 X25.3682 Y36.9554 I0.3614 J-0.2456
G3 X25.3426 Y36.87 I0.4037 J-0.1672
G3 X25.3332 Y36.7699 I0.525 J-0.1001
G3 X25.3426 Y36.6698 I0.5344 J0
G3 X25.3682 Y36.5844 I0.4293 J0.0819
G3 X25.4105 Y36.506 I0.4037 J0.1672
G3 X25.4746 Y36.4285 I0.442 J0.3004
G3 X25.5521 Y36.3644 I0.3779 J0.3779
G3 X25.6305 Y36.3221 I0.2456 J0.3614
G3 X25.7158 Y36.2966 I0.1672 J0.4037
G3 X25.816 Y36.2871 I0.1001 J0.525
G1 X28.0672 Y36.2871
G3 X28.1674 Y36.2966 I0 J0.5344
G3 X28.2527 Y36.3221 I-0.0819 J0.4293
G3 X28.3311 Y36.3644 I-0.1672 J0.4037
G3 X28.4086 Y36.4285 I-0.3004 J0.442
G3 X28.4727 Y36.506 I-0.3779 J0.3779
G3 X28.515 Y36.5844 I-0.3614 J0.2456
G3 X28.5406 Y36.6698 I-0.4037 J0.1672
G3 X28.55 Y36.7699 I-0.525 J0.1001
G3 X28.5406 Y36.87 I-0.5344 J0
G3 X28.515 Y36.9554 I-0.4293 J-0.0819
G3 X28.4727 Y37.0338 I-0.4037 J-0.1672
G3 X28.4086 Y37.1113 I-0.442 J-0.3004
G3 X28.3311 Y37.1754 I-0.3779 J-0.3779
G3 X28.2527 Y37.2177 I-0.2456 J-0.3614
G3 X28.1674 Y37.2432 I-0.1672 J-0.4037
G3 X28.0672 Y37.2527 I-0.1001 J-0.525
G1 Z-0.76 F36
G1 X25.816 Y37.2527 F36
G3 X25.7158 Y37.2432 I0 J-0.5344
G3 X25.6305 Y37.2177 I0.0819 J-0.4293
G3 X25.5521 Y37.1754 I0.1672 J-0.4037
G3 X25.4746 Y37.1113 I0.3004 J-0.442
G3 X25.4105 Y37.0338 I0.3779 J-0.3779
G3 X25.3682 Y36.9554 I0.3614 J-0.2456
G3 X25.3426 Y36.87 I0.4037 J-0.1672
G3 X25.3332 Y36.7699 I0.525 J-0.1001
G3 X25.3426 Y36.6698 I0.5344 J0
G3 X25.3682 Y36.5844 I0.4293 J0.0819
G3 X25.4105 Y36.506 I0.4037 J0.1672
G3 X25.4746 Y36.4285 I0.442 J0.3004
G3 X25.5521 Y36.3644 I0.3779 J0.3779
G3 X25.6305 Y36.3221 I0.2456 J0.3614
G3 X25.7158 Y36.2966 I0.1672 J0.4037
G3 X25.816 Y36.2871 I0.1001 J0.525
G1 X28.0672 Y36.2871
G3 X28.1674 Y36.2966 I0 J0.5344
G3 X28.2527 Y36.3221 I-0.0819 J0.4293
G3 X28.3311 Y36.3644 I-0.1672 J0.4037
G3 X28.4086 Y36.4285 I-0.3004 J0.442
G3 X28.4727 Y36.506 I-0.3779 J0.3779
G3 X28.515 Y36.5844 I-0.3614 J0.2456
G3 X28.5406 Y36.6698 I-0.4037 J0.1672
G3 X28.55 Y36.7699 I-0.525 J0.1001
G3 X28.5406 Y36.87 I-0.5344 J0
G3 X28.515 Y36.9554 I-0.4293 J-0.0819
G3 X28.4727 Y37.0338 I-0.4037 J-0.1672
G3 X28.4086 Y37.1113 I-0.442 J-0.3004
G3 X28.3311 Y37.1754 I-0.3779 J-0.3779
G3 X28.2527 Y37.2177 I-0.2456 J-0.3614
G3 X28.1674 Y37.2432 I-0.1672 J-0.4037
G3 X28.0672 Y37.2527 I-0.1001 J-0.525
G0 Z0.1
G0 X12.3192 Y6.7103
G1 Z-0.38 F36
G3 X12.5245 Y6.6909 I0.2053 J1.0762 F36
G3 X12.7297 Y6.7103 I0 J1.0956
G3 X12.9085 Y6.7638 I-0.1715 J0.899
G3 X13.0727 Y6.8524 I-0.3502 J0.8456
G3 X13.2316 Y6.9838 I-0.6158 J0.9061
G3 X13.363 Y7.1427 I-0.7747 J0.7747
G3 X13.4516 Y7.3069 I-0.757 J0.5144
G3 X13.505 Y7.4857 I-0.8456 J0.3502
G3 X13.5245 Y7.6909 I-1.0762 J0.2053
G3 X13.505 Y7.8962 I-1.0956 J0
G3 X13.4516 Y8.075 I-0.899 J-0.1715
G3 X13.363 Y8.2392 I-0.8456 J-0.3502
G3 X13.2316 Y8.398 I-0.9061 J-0.6158
G3 X13.0727 Y8.5295 I-0.7747 J-0.7747
G3 X12.9085 Y8.6181 I-0.5144 J-0.757
G3 X12.7297 Y8.6715 I-0.3502 J-0.8456
G3 X12.5245 Y8.6909 I-0.2053 J-1.0762
G3 X12.3192 Y8.6715 I0 J-1.0956
G3 X12.1404 Y8.6181 I0.1715 J-0.899
G3 X11.9762 Y8.5295 I0.3502 J-0.8456
G3 X11.8173 Y8.398 I0.6158 J-0.9061
G3 X11.6859 Y8.2392 I0.7747 J-0.7747
G3 X11.5973 Y8.075 I0.757 J-0.5144
G3 X11.5439 Y7.8962 I0.8456 J-0.3502
G3 X11.5245 Y7.6909 I1.0762 J-0.2053
G3 X11.5439 Y7.4857 I1.0956 J0
G3 X11.5973 Y7.3069 I0.899 J0.1715
G3 X11.6859 Y7.1427 I0.8456 J0.3502
G3 X11.8173 Y6.9838 I0.9061 J0.6158
G3 X11.9762 Y6.8524 I0.7747 J0.7747
G3 X12.1404 Y6.7638 I0.5144 J0.757
G3 X12.3192 Y6.7103 I0.3502 J0.8456
G1 Z-0.76 F36
G3 X12.5245 Y6.6909 I0.2053 J1.0762 F36
G3 X12.7297 Y6.7103 I0 J1.0956
G3 X12.9085 Y6.7638 I-0.1715 J0.899
G3 X13.0727 Y6.8524 I-0.3502 J0.8456
G3 X13.2316 Y6.9838 I-0.6158 J0.9061
G3 X13.363 Y7.1427 I-0.7747 J0.7747
G3 X13.4516 Y7.3069 I-0.757 J0.5144
G3 X13.505 Y7.4857 I-0.8456 J0.3502
G3 X13.5245 Y7.6909 I-1.0762 J0.2053
G3 X13.505 Y7.8962 I-1.0956 J0
G3 X13.4516 Y8.075 I-0.899 J-0.1715
G3 X13.363 Y8.2392 I-0.8456 J-0.3502
G3 X13.2316 Y8.398 I-0.9061 J-0.6158
G3 X13.0727 Y8.5295 I-0.7747 J-0.7747
G3 X12.9085 Y8.6181 I-0.5144 J-0.757
G3 X12.7297 Y8.6715 I-0.3502 J-0.8456
G3 X12.5245 Y8.6909 I-0.2053 J-1.0762
G3 X12.3192 Y8.6715 I0 J-1.0956
G3 X12.1404 Y8.6181 I0.1715 J-0.899
G3 X11.9762 Y8.5295 I0.3502 J-0.8456
G3 X11.8173 Y8.398 I0.6158 J-0.9061
G3 X11.6859 Y8.2392 I0.7747 J-0.7747
G3 X11.5973 Y8.075 I0.757 J-0.5144
G3 X11.5439 Y7.8962 I0.8456 J-0.3502
G3 X11.5245 Y7.6909 I1.0762 J-0.2053
G3 X11.5439 Y7.4857 I1.0956 J0
G3 X11.5973 Y7.3069 I0.899 J0.1715
G3 X11.6859 Y7.1427 I0.8456 J0.3502
G3 X11.8173 Y6.9838 I0.9061 J0.6158
G3 X11.9762 Y6.8524 I0.7747 J0.7747
G3 X12.1404 Y6.7638 I0.5144 J0.757
G3 X12.3192 Y6.7103 I0.3502 J0.8456
G0 Z0.1
G0 X8.9035 Y8.1787
G1 Z-0.38 F36
G3 X8.7745 Y8.1909 I-0.129 J-0.6765 F36
G3 X8.6454 Y8.1787 I0 J-0.6887
G3 X8.5344 Y8.1455 I0.1065 J-0.5584
G3 X8.4324 Y8.0905 I0.2175 J-0.5252
G3 X8.3325 Y8.0079 I0.3871 J-0.5696
G3 X8.2499 Y7.908 I0.487 J-0.487
G3 X8.1949 Y7.806 I0.4702 J-0.3195
G3 X8.1616 Y7.695 I0.5252 J-0.2175
G3 X8.1495 Y7.5659 I0.6765 J-0.129
G3 X8.1616 Y7.4369 I0.6887 J0
G3 X8.1949 Y7.3258 I0.5584 J0.1065
G3 X8.2499 Y7.2239 I0.5252 J0.2175
G3 X8.3325 Y7.124 I0.5696 J0.3871
G3 X8.4324 Y7.0414 I0.487 J0.487
G3 X8.5344 Y6.9863 I0.3195 J0.4702
G3 X8.6454 Y6.9531 I0.2175 J0.5252
G3 X8.7745 Y6.9409 I0.129 J0.6765
G3 X8.9035 Y6.9531 I0 J0.6887
G3 X9.0145 Y6.9863 I-0.1065 J0.5584
G3 X9.1165 Y7.0414 I-0.2175 J0.5252
G3 X9.2164 Y7.124 I-0.3871 J0.5696
G3 X9.299 Y7.2239 I-0.487 J0.487
G3 X9.354 Y7.3258 I-0.4702 J0.3195
G3 X9.3873 Y7.4369 I-0.5252 J0.2175
G3 X9.3995 Y7.5659 I-0.6765 J0.129
G3 X9.3873 Y7.695 I-0.6887 J0
G3 X9.354 Y7.806 I-0.5584 J-0.1065
G3 X9.299 Y7.908 I-0.5252 J-0.2175
G3 X9.2164 Y8.0079 I-0.5696 J-0.3871
G3 X9.1165 Y8.0905 I-0.487 J-0.487
G3 X9.0145 Y8.1455 I-0.3195 J-0.4702
G3 X8.9035 Y8.1787 I-0.2175 J-0.5252
G1 Z-0.76 F36
G3 X8.7745 Y8.1909 I-0.129 J-0.6765 F36
G3 X8.6454 Y8.1787 I0 J-0.6887
G3 X8.5344 Y8.1455 I0.1065 J-0.5584
G3 X8.4324 Y8.0905 I0.2175 J-0.5252
G3 X8.3325 Y8.0079 I0.3871 J-0.5696
G3 X8.2499 Y7.908 I0.487 J-0.487
G3 X8.1949 Y7.806 I0.4702 J-0.3195
G3 X8.1616 Y7.695 I0.5252 J-0.2175
G3 X8.1495 Y7.5659 I0.6765 J-0.129
G3 X8.1616 Y7.4369 I0.6887 J0
G3 X8.1949 Y7.3258 I0.5584 J0.1065
G3 X8.2499 Y7.2239 I0.5252 J0.2175
G3 X8.3325 Y7.124 I0.5696 J0.3871
G3 X8.4324 Y7.0414 I0.487 J0.487
G3 X8.5344 Y6.9863 I0.3195 J0.4702
G3 X8.6454 Y6.9531 I0.2175 J0.5252
G3 X8.7745 Y6.9409 I0.129 J0.6765
G3 X8.9035 Y6.9531 I0 J0.6887
G3 X9.0145 Y6.9863 I-0.1065 J0.5584
G3 X9.1165 Y7.0414 I-0.2175 J0.5252
G3 X9.2164 Y7.124 I-0.3871 J0.5696
G3 X9.299 Y7.2239 I-0.487 J0.487
G3 X9.354 Y7.3258 I-0.4702 J0.3195
G3 X9.3873 Y7.4369 I-0.5252 J0.2175
G3 X9.3995 Y7.5659 I-0.6765 J0.129
G3 X9.3873 Y7.695 I-0.6887 J0
G3 X9.354 Y7.806 I-0.5584 J-0.1065
G3 X9.299 Y7.908 I-0.5252 J-0.2175
G3 X9.2164 Y8.0079 I-0.5696 J-0.3871
G3 X9.1165 Y8.0905 I-0.487 J-0.487
G3 X9.0145 Y8.1455 I-0.3195 J-0.4702
G3 X8.9035 Y8.1787 I-0.2175 J-0.5252
G0 Z0.1
G0 X16.8873 Y7.4369
G1 Z-0.38 F36
G3 X16.8995 Y7.5659 I-0.6765 J0.129 F36
G3 X16.8873 Y7.695 I-0.6887 J0
G3 X16.854 Y7.806 I-0.5584 J-0.1065
G3 X16.799 Y7.908 I-0.5252 J-0.2175
G3 X16.7164 Y8.0079 I-0.5696 J-0.3871
G3 X16.6165 Y8.0905 I-0.487 J-0.487
G3 X16.5145 Y8.1455 I-0.3195 J-0.4702
G3 X16.4035 Y8.1787 I-0.2175 J-0.5252
G3 X16.2745 Y8.1909 I-0.129 J-0.6765
G3 X16.1454 Y8.1787 I0 J-0.6887
G3 X16.0344 Y8.1455 I0.1065 J-0.5584
G3 X15.9324 Y8.0905 I0.2175 J-0.5252
G3 X15.8325 Y8.0079 I0.3871 J-0.5696
G3 X15.7499 Y7.908 I0.487 J-0.487
G3 X15.6949 Y7.806 I0.4702 J-0.3195
G3 X15.6616 Y7.695 I0.5252 J-0.2175
G3 X15.6495 Y7.5659 I0.6765 J-0.129
G3 X15.6616 Y7.4369 I0.6887 J0
G3 X15.6949 Y7.3258 I0.5584 J0.1065
G3 X15.7499 Y7.2239 I0.5252 J0.2175
G3 X15.8325 Y7.124 I0.5696 J0.3871
G3 X15.9324 Y7.0414 I0.487 J0.487
G3 X16.0344 Y6.9863 I0.3195 J0.4702
G3 X16.1454 Y6.9531 I0.2175 J0.5252
G3 X16.2745 Y6.9409 I0.129 J0.6765
G3 X16.4035 Y6.9531 I0 J0.6887
G3 X16.5145 Y6.9863 I-0.1065 J0.5584
G3 X16.6165 Y7.0414 I-0.2175 J0.5252
G3 X16.7164 Y7.124 I-0.3871 J0.5696
G3 X16.799 Y7.2239 I-0.487 J0.487
G3 X16.854 Y7.3258 I-0.4702 J0.3195
G3 X16.8873 Y7.4369 I-0.5252 J0.2175
G1 Z-0.76 F36
G3 X16.8995 Y7.5659 I-0.6765 J0.129 F36
G3 X16.8873 Y7.695 I-0.6887 J0
G3 X16.854 Y7.806 I-0.5584 J-0.1065
G3 X16.799 Y7.908 I-0.5252 J-0.2175
G3 X16.7164 Y8.0079 I-0.5696 J-0.3871
G3 X16.6165 Y8.0905 I-0.487 J-0.487
G3 X16.5145 Y8.1455 I-0.3195 J-0.4702
G3 X16.4035 Y8.1787 I-0.2175 J-0.5252
G3 X16.2745 Y8.1909 I-0.129 J-0.6765
G3 X16.1454 Y8.1787 I0 J-0.6887
G3 X16.0344 Y8.1455 I0.1065 J-0.5584
G3 X15.9324 Y8.0905 I0.2175 J-0.5252
G3 X15.8325 Y8.0079 I0.3871 J-0.5696
G3 X15.7499 Y7.908 I0.487 J-0.487
G3 X15.6949 Y7.806 I0.4702 J-0.3195
G3 X15.6616 Y7.695 I0.5252 J-0.2175
G3 X15.6495 Y7.5659 I0.6765 J-0.129
G3 X15.6616 Y7.4369 I0.6887 J0
G3 X15.6949 Y7.3258 I0.5584 J0.1065
G3 X15.7499 Y7.2239 I0.5252 J0.2175
G3 X15.8325 Y7.124 I0.5696 J0.3871
G3 X15.9324 Y7.0414 I0.487 J0.487
G3 X16.0344 Y6.9863 I0.3195 J0.4702
G3 X16.1454 Y6.9531 I0.2175 J0.5252
G3 X16.2745 Y6.9409 I0.129 J0.6765
G3 X16.4035 Y6.9531 I0 J0.6887
G3 X16.5145 Y6.9863 I-0.1065 J0.5584
G3 X16.6165 Y7.0414 I-0.2175 J0.5252
G3 X16.7164 Y7.124 I-0.3871 J0.5696
G3 X16.799 Y7.2239 I-0.487 J0.487
G3 X16.854 Y7.3258 I-0.4702 J0.3195
G3 X16.8873 Y7.4369 I-0.5252 J0.2175
G0 Z0.1
G0 X15.1887 Y30.3845
G1 Z-0.38 F36
G3 X15.1481 Y30.4116 I-0.0884 J-0.0884 F36
G3 X15.1003 Y30.4211 I-0.0478 J-0.1155
G3 X15.0525 Y30.4116 I0 J-0.125
G3 X15.0119 Y30.3845 I0.0478 J-0.1155
G3 X14.9848 Y30.344 I0.0884 J-0.0884
G3 X14.9753 Y30.2961 I0.1155 J-0.0478
G3 X14.9848 Y30.2483 I0.125 J0
G3 X15.0119 Y30.2077 I0.1155 J0.0478
G3 X15.0525 Y30.1806 I0.0884 J0.0884
G3 X15.1003 Y30.1711 I0.0478 J0.1155
G3 X15.1481 Y30.1806 I0 J0.125
G3 X15.1887 Y30.2077 I-0.0478 J0.1155
G3 X15.2158 Y30.2483 I-0.0884 J0.0884
G3 X15.2253 Y30.2961 I-0.1155 J0.0478
G3 X15.2158 Y30.344 I-0.125 J0
G3 X15.1887 Y30.3845 I-0.1155 J-0.0478
G1 Z-0.76 F36
G3 X15.1481 Y30.4116 I-0.0884 J-0.0884 F36
G3 X15.1003 Y30.4211 I-0.0478 J-0.1155
G3 X15.0525 Y30.4116 I0 J-0.125
G3 X15.0119 Y30.3845 I0.0478 J-0.1155
G3 X14.9848 Y30.344 I0.0884 J-0.0884
G3 X14.9753 Y30.2961 I0.1155 J-0.0478
G3 X14.9848 Y30.2483 I0.125 J0
G3 X15.0119 Y30.2077 I0.1155 J0.0478
G3 X15.0525 Y30.1806 I0.0884 J0.0884
G3 X15.1003 Y30.1711 I0.0478 J0.1155
G3 X15.1481 Y30.1806 I0 J0.125
G3 X15.1887 Y30.2077 I-0.0478 J0.1155
G3 X15.2158 Y30.2483 I-0.0884 J0.0884
G3 X15.2253 Y30.2961 I-0.1155 J0.0478
G3 X15.2158 Y30.344 I-0.125 J0
G3 X15.1887 Y30.3845 I-0.1155 J-0.0478
G0 Z0.1
G0 X8.1628 Y30.4599
G1 Z-0.38 F36
G3 X8.115 Y30.4504 I0 J-0.125 F36
G3 X8.0745 Y30.4233 I0.0478 J-0.1155
G3 X8.0474 Y30.3828 I0.0884 J-0.0884
G3 X8.0378 Y30.3349 I0.1155 J-0.0478
G3 X8.0474 Y30.2871 I0.125 J0
G3 X8.0745 Y30.2466 I0.1155 J0.0478
G3 X8.115 Y30.2195 I0.0884 J0.0884
G3 X8.1628 Y30.2099 I0.0478 J0.1155
G3 X8.2107 Y30.2195 I0 J0.125
G3 X8.2512 Y30.2466 I-0.0478 J0.1155
G3 X8.2783 Y30.2871 I-0.0884 J0.0884
G3 X8.2878 Y30.3349 I-0.1155 J0.0478
G3 X8.2783 Y30.3828 I-0.125 J0
G3 X8.2512 Y30.4233 I-0.1155 J-0.0478
G3 X8.2107 Y30.4504 I-0.0884 J-0.0884
G3 X8.1628 Y30.4599 I-0.0478 J-0.1155
G1 Z-0.76 F36
G3 X8.115 Y30.4504 I0 J-0.125 F36
G3 X8.0745 Y30.4233 I0.0478 J-0.1155
G3 X8.0474 Y30.3828 I0.0884 J-0.0884
G3 X8.0378 Y30.3349 I0.1155 J-0.0478
G3 X8.0474 Y30.2871 I0.125 J0
G3 X8.0745 Y30.2466 I0.1155 J0.0478
G3 X8.115 Y30.2195 I0.0884 J0.0884
G3 X8.1628 Y30.2099 I0.0478 J0.1155
G3 X8.2107 Y30.2195 I0 J0.125
G3 X8.2512 Y30.2466 I-0.0478 J0.1155
G3 X8.2783 Y30.2871 I-0.0884 J0.0884
G3 X8.2878 Y30.3349 I-0.1155 J0.0478
G3 X8.2783 Y30.3828 I-0.125 J0
G3 X8.2512 Y30.4233 I-0.1155 J-0.0478
G3 X8.2107 Y30.4504 I-0.0884 J-0.0884
G3 X8.1628 Y30.4599 I-0.0478 J-0.1155

(profile 2)
G0 Z0.1
G0 X61.3739 Y10.1854
G1 Z-0.38 F36
G1 X61.7489 Y10.1854 F36
G1 X70.3739 Y10.1854
G1 X70.7489 Y10.1854
G1 X75.3012 Y10.1854
G3 X75.7312 Y10.226 I0 J2.2949
G3 X76.1168 Y10.3413 I-0.3699 J1.9393
G3 X76.471 Y10.5325 I-0.7555 J1.824
G3 X76.8038 Y10.8078 I-1.29 J1.8981
G3 X77.0791 Y11.1406 I-1.6228 J1.6228
G3 X77.2702 Y11.4948 I-1.6329 J1.1097
G3 X77.3855 Y11.8804 I-1.824 J0.7555
G3 X77.4262 Y12.3104 I-2.2543 J0.43
G1 X77.4262 Y13.0402
G1 X77.4262 Y13.4152
G1 X77.4262 Y16.3104
G3 X77.3855 Y16.7404 I-2.2949 J0
G3 X77.2702 Y17.126 I-1.9393 J-0.3699
G3 X77.0791 Y17.4802 I-1.824 J-0.7555
G3 X76.8038 Y17.813 I-1.8981 J-1.29
G3 X76.471 Y18.0883 I-1.6228 J-1.6228
G3 X76.1168 Y18.2794 I-1.1097 J-1.6329
G3 X75.7312 Y18.3947 I-0.7555 J-1.824
G3 X75.3012 Y18.4354 I-0.43 J-2.2543
G1 X74.9251 Y18.4354
G2 X74.5593 Y18.4714 I0 J1.875
G2 X74.2076 Y18.5781 I0.3658 J1.839
G2 X73.8834 Y18.7514 I0.7175 J1.7323
G2 X73.5993 Y18.9846 I1.0417 J1.559
G1 X73.2187 Y19.3651
G1 X73.185 Y19.3988
G3 X73.0967 Y19.4354 I-0.0884 J-0.0884
G1 X72.8674 Y19.4354
G1 X68.5512 Y19.4354
G3 X68.4628 Y19.3988 I0 J-0.125
G1 X68.0486 Y18.9846
G2 X67.7644 Y18.7514 I-1.3258 J1.3258
G2 X67.4403 Y18.5781 I-1.0417 J1.559
G2 X67.0885 Y18.4714 I-0.7175 J1.7323
G2 X66.7228 Y18.4354 I-0.3658 J1.839
G1 X66.3467 Y18.4354
G3 X65.9321 Y18.3945 I0 J-2.125
G3 X65.5335 Y18.2736 I0.4146 J-2.0842
G3 X65.1661 Y18.0772 I0.8132 J-1.9632
G3 X64.8441 Y17.813 I1.1806 J-1.7669
G1 X64.7683 Y17.7373
G1 X64.5032 Y17.4721
G1 X62.7761 Y15.745
G2 X62.4919 Y15.5118 I-1.3258 J1.3258
G2 X62.1678 Y15.3385 I-1.0417 J1.559
G2 X61.816 Y15.2318 I-0.7175 J1.7323
G2 X61.4502 Y15.1958 I-0.3658 J1.839
G1 X56.7403 Y15.1958
G1 X56.3653 Y15.1958
G1 X48.7984 Y15.1958
G3 X48.6734 Y15.0708 I0 J-0.125
G3 X48.6775 Y15.0391 I0.125 J0
G1 X48.6803 Y15.0285
G3 X48.7708 Y14.7481 I2.6324 J0.695
G3 X48.8937 Y14.4724 I2.673 J1.0257
G3 X49.0017 Y14.2786 I2.6955 J1.3756
G3 X49.0307 Y14.2317 I2.5874 J1.5694
G3 X49.2015 Y13.985 I3.022 J1.9091
G3 X49.2134 Y13.9692 I3.2047 J2.423
G3 X49.4114 Y13.7299 I3.1927 J2.4387
G3 X49.6834 Y13.4458 I4.2862 J3.833
G3 X49.9023 Y13.2413 I4.9204 J5.0465
G3 X50.2074 Y12.9759 I9.3984 J10.4969
G2 X50.7905 Y12.0479 I-13.0644 J-8.8551
G2 X51.2972 Y11.0974 I-12.7841 J-7.4255
G2 X51.7324 Y10.1125 I-12.9946 J-6.3307
G2 X52.0886 Y9.1094 I-13.1274 J-5.2255
G2 X52.3682 Y8.0823 I-13.4836 J-4.2224
G2 X52.5724 Y7.0251 I-14.0802 J-3.2689
G2 X52.6694 Y6.2715 I-14.6101 J-2.2621
G2 X52.6984 Y5.9554 I-14.7071 J-1.5085
G2 X52.7029 Y5.898 I-15.7312 J-1.2729
G2 X52.7489 Y4.844 I-15.7357 J-1.2155
G1 X52.7489 Y3.8104
G3 X52.8739 Y3.6854 I0.125 J0
G1 X55.3739 Y3.6854
G3 X55.4989 Y3.8104 I0 J0.125
G1 X55.4989 Y4.3104
G2 X55.5267 Y4.9176 I6.6462 J0
G2 X55.6066 Y5.4841 I5.8763 J-0.5391
G2 X55.7418 Y6.0392 I5.5568 J-1.0599
G2 X55.9288 Y6.5658 I5.1931 J-1.5469
G2 X56.169 Y7.0705 I5.0061 J-2.0736
G2 X56.4658 Y7.5586 I4.9756 J-2.6917
G2 X56.81 Y8.0156 I4.8805 J-3.3169
G2 X57.2197 Y8.4646 I5.1093 J-4.2506
G2 X57.6687 Y8.8743 I4.6996 J-4.6996
G2 X58.1257 Y9.2185 I3.7739 J-4.5364
G2 X58.6139 Y9.5153 I3.1798 J-4.6787
G2 X59.1185 Y9.7556 I2.5782 J-4.7659
G2 X59.6452 Y9.9425 I2.0736 J-5.0061
G2 X60.2002 Y10.0778 I1.615 J-5.4216
G2 X60.7667 Y10.1576 I1.1056 J-5.7964
G2 X61.3739 Y10.1854 I0.6072 J-6.6184
G1 Z-0.76 F36
G1 Z-0.5 F36
G1 X61.7489 Y10.1854 F36
G1 Z-0.76 F36
G1 X70.3739 Y10.1854 F36
G1 Z-0.5 F36
G1 X70.7489 Y10.1854 F36
G1 Z-0.76 F36
G1 X75.3012 Y10.1854 F36
G3 X75.7312 Y10.226 I0 J2.2949
G3 X76.1168 Y10.3413 I-0.3699 J1.9393
G3 X76.471 Y10.5325 I-0.7555 J1.824
G3 X76.8038 Y10.8078 I-1.29 J1.8981
G3 X77.0791 Y11.1406 I-1.6228 J1.6228
G3 X77.2702 Y11.4948 I-1.6329 J1.1097
G3 X77.3855 Y11.8804 I-1.824 J0.7555
G3 X77.4262 Y12.3104 I-2.2543 J0.43
G1 X77.4262 Y13.0402
G1 Z-0.5 F36
G1 X77.4262 Y13.4152 F36
G1 Z-0.76 F36
G1 X77.4262 Y16.3104 F36
G3 X77.3855 Y16.7404 I-2.2949 J0
G3 X77.2702 Y17.126 I-1.9393 J-0.3699
G3 X77.0791 Y17.4802 I-1.824 J-0.7555
G3 X76.8038 Y17.813 I-1.8981 J-1.29
G3 X76.471 Y18.0883 I-1.6228 J-1.6228
G3 X76.1168 Y18.2794 I-1.1097 J-1.6329
G3 X75.7312 Y18.3947 I-0.7555 J-1.824
G3 X75.3012 Y18.4354 I-0.43 J-2.2543
G1 X74.9251 Y18.4354
G2 X74.5593 Y18.4714 I0 J1.875
G2 X74.2076 Y18.5781 I0.3658 J1.839
G2 X73.8834 Y18.7514 I0.7175 J1.7323
G2 X73.5993 Y18.9846 I1.0417 J1.559
G1 X73.2187 Y19.3651
G1 Z-0.5 F36
G1 X73.185 Y19.3988 F36
G3 X73.0967 Y19.4354 I-0.0884 J-0.0884
G1 X72.8674 Y19.4354
G1 Z-0.76 F36
G1 X68.5512 Y19.4354 F36
G3 X68.4628 Y19.3988 I0 J-0.125
G1 X68.0486 Y18.9846
G2 X67.7644 Y18.7514 I-1.3258 J1.3258
G2 X67.4403 Y18.5781 I-1.0417 J1.559
G2 X67.0885 Y18.4714 I-0.7175 J1.7323
G2 X66.7228 Y18.4354 I-0.3658 J1.839
G1 X66.3467 Y18.4354
G3 X65.9321 Y18.3945 I0 J-2.125
G3 X65.5335 Y18.2736 I0.4146 J-2.0842
G3 X65.1661 Y18.0772 I0.8132 J-1.9632
G3 X64.8441 Y17.813 I1.1806 J-1.7669
G1 X64.7683 Y17.7373
G1 Z-0.5 F36
G1 X64.5032 Y17.4721 F36
G1 Z-0.76 F36
G1 X62.7761 Y15.745 F36
G2 X62.4919 Y15.5118 I-1.3258 J1.3258
G2 X62.1678 Y15.3385 I-1.0417 J1.559
G2 X61.816 Y15.2318 I-0.7175 J1.7323
G2 X61.4502 Y15.1958 I-0.3658 J1.839
G1 X56.7403 Y15.1958
G1 Z-0.5 F36
G1 X56.3653 Y15.1958 F36
G1 Z-0.76 F36
G1 X48.7984 Y15.1958 F36
G3 X48.6734 Y15.0708 I0 J-0.125
G3 X48.6775 Y15.0391 I0.125 J0
G1 X48.6803 Y15.0285
G3 X48.7708 Y14.7481 I2.6324 J0.695
G3 X48.8937 Y14.4724 I2.673 J1.0257
G3 X49.0017 Y14.2786 I2.6955 J1.3756
G1 Z-0.5 F36
G3 X49.0307 Y14.2317 I2.5874 J1.5694 F36
G3 X49.2015 Y13.985 I3.022 J1.9091
G3 X49.2134 Y13.9692 I3.2047 J2.423
G1 Z-0.76 F36
G3 X49.4114 Y13.7299 I3.1927 J2.4387 F36
G3 X49.6834 Y13.4458 I4.2862 J3.833
G3 X49.9023 Y13.2413 I4.9204 J5.0465
G3 X50.2074 Y12.9759 I9.3984 J10.4969
G2 X50.7905 Y12.0479 I-13.0644 J-8.8551
G2 X51.2972 Y11.0974 I-12.7841 J-7.4255
G2 X51.7324 Y10.1125 I-12.9946 J-6.3307
G2 X52.0886 Y9.1094 I-13.1274 J-5.2255
G2 X52.3682 Y8.0823 I-13.4836 J-4.2224
G2 X52.5724 Y7.0251 I-14.0802 J-3.2689
G2 X52.6694 Y6.2715 I-14.6101 J-2.2621
G1 Z-0.5 F36
G2 X52.6984 Y5.9554 I-14.7071 J-1.5085 F36
G2 X52.7029 Y5.898 I-15.7312 J-1.2729
G1 Z-0.76 F36
G2 X52.7489 Y4.844 I-15.7357 J-1.2155 F36
G1 X52.7489 Y3.8104
G3 X52.8739 Y3.6854 I0.125 J0
G1 X55.3739 Y3.6854
G3 X55.4989 Y3.8104 I0 J0.125
G1 X55.4989 Y4.3104
G2 X55.5267 Y4.9176 I6.6462 J0
G2 X55.6066 Y5.4841 I5.8763 J-0.5391
G2 X55.7418 Y6.0392 I5.5568 J-1.0599
G2 X55.9288 Y6.5658 I5.1931 J-1.5469
G2 X56.169 Y7.0705 I5.0061 J-2.0736
G2 X56.4658 Y7.5586 I4.9756 J-2.6917
G2 X56.81 Y8.0156 I4.8805 J-3.3169
G2 X57.2197 Y8.4646 I5.1093 J-4.2506
G2 X57.6687 Y8.8743 I4.6996 J-4.6996
G2 X58.1257 Y9.2185 I3.7739 J-4.5364
G2 X58.6139 Y9.5153 I3.1798 J-4.6787
G2 X59.1185 Y9.7556 I2.5782 J-4.7659
G2 X59.6452 Y9.9425 I2.0736 J-5.0061
G2 X60.2002 Y10.0778 I1.615 J-5.4216
G2 X60.7667 Y10.1576 I1.1056 J-5.7964
G2 X61.3739 Y10.1854 I0.6072 J-6.6184
G0 Z0.1
G0 X49.5948 Y20.1939
G1 Z-0.38 F36
G1 X49.9698 Y20.1939 F36
G1 X58.5948 Y20.1939
G1 X58.9698 Y20.1939
G1 X63.5221 Y20.1939
G3 X63.8038 Y20.2121 I0 J2.1965
G3 X64.0724 Y20.2652 I-0.2639 J2.0402
G3 X64.3315 Y20.3535 I-0.5324 J1.9871
G3 X64.5846 Y20.4786 I-0.8452 J2.0274
G3 X64.8195 Y20.6352 I-1.0982 J1.9022
G3 X65.0255 Y20.8155 I-1.2486 J1.6349
G3 X65.2058 Y21.0215 I-1.4546 J1.4546
G3 X65.3624 Y21.2564 I-1.7456 J1.3332
G3 X65.4875 Y21.5095 I-1.9022 J1.0982
G3 X65.5758 Y21.7686 I-1.8988 J0.7916
G3 X65.6289 Y22.0372 I-1.9871 J0.5324
G3 X65.6471 Y22.3189 I-2.1783 J0.2817
G1 X65.6471 Y23.0528
G1 X65.6471 Y23.4278
G1 X65.6471 Y26.3189
G3 X65.6289 Y26.6006 I-2.1965 J0
G3 X65.5758 Y26.8692 I-2.0402 J-0.2639
G3 X65.4875 Y27.1284 I-1.9871 J-0.5324
G3 X65.3624 Y27.3814 I-2.0274 J-0.8452
G3 X65.2058 Y27.6163 I-1.9022 J-1.0982
G3 X65.0255 Y27.8224 I-1.6349 J-1.2486
G3 X64.8195 Y28.0026 I-1.4546 J-1.4546
G3 X64.5846 Y28.1592 I-1.3332 J-1.7456
G3 X64.3315 Y28.2844 I-1.0982 J-1.9022
G3 X64.0724 Y28.3727 I-0.7916 J-1.8988
G3 X63.8038 Y28.4258 I-0.5324 J-1.9871
G3 X63.5221 Y28.4439 I-0.2817 J-2.1783
G1 X63.146 Y28.4439
G2 X62.7802 Y28.4799 I0 J1.875
G2 X62.4284 Y28.5866 I0.3658 J1.839
G2 X62.1043 Y28.7599 I0.7175 J1.7323
G2 X61.8201 Y28.9931 I1.0417 J1.559
G1 X61.4339 Y29.3794
G1 X61.406 Y29.4073
G3 X61.3176 Y29.4439 I-0.0884 J-0.0884
G1 X61.0802 Y29.4439
G1 X56.772 Y29.4439
G3 X56.6836 Y29.4073 I0 J-0.125
G1 X56.2695 Y28.9931
G2 X55.9853 Y28.7599 I-1.3258 J1.3258
G2 X55.6612 Y28.5866 I-1.0417 J1.559
G2 X55.3094 Y28.4799 I-0.7175 J1.7323
G2 X54.9436 Y28.4439 I-0.3658 J1.839
G1 X54.5675 Y28.4439
G3 X54.153 Y28.4031 I0 J-2.125
G3 X53.7543 Y28.2822 I0.4146 J-2.0842
G3 X53.387 Y28.0858 I0.8132 J-1.9632
G3 X53.0649 Y27.8215 I1.1806 J-1.7669
G1 X52.9835 Y27.74
G1 X52.7183 Y27.4749
G1 X50.9969 Y25.7535
G2 X50.7128 Y25.5203 I-1.3258 J1.3258
G2 X50.3887 Y25.3471 I-1.0417 J1.559
G2 X50.0369 Y25.2404 I-0.7175 J1.7323
G2 X49.6711 Y25.2043 I-0.3658 J1.839
G1 X44.9531 Y25.2043
G1 X44.5781 Y25.2043
G1 X43.3871 Y25.2043
G2 X43.0437 Y25.2339 I0 J2.011
G2 X42.7345 Y25.3171 I0.299 J1.7258
G2 X42.4457 Y25.4553 I0.6082 J1.6426
G2 X42.1659 Y25.6565 I1.03 J1.7272
G2 X41.9246 Y25.9025 I1.3098 J1.526
G2 X41.7442 Y26.1671 I1.3509 J1.1149
G2 X41.615 Y26.4601 I1.5313 J0.8503
G2 X41.5338 Y26.795 I1.9065 J0.6399
G1 X41.1711 Y29.159
G3 X41.0243 Y29.7732 I-3.7969 J-0.5825
G3 X40.7893 Y30.3228 I-3.2565 J-1.0677
G3 X40.4623 Y30.8232 I-3.0214 J-1.6173
G3 X40.0925 Y31.2301 I-3.0202 J-2.3736
G3 X40.0326 Y31.2859 I-2.6504 J-2.7805
G3 X39.8088 Y31.4751 I-2.5905 J-2.8364
G3 X39.5328 Y31.672 I-2.3667 J-3.0256
G3 X39.0049 Y31.9524 I-1.8652 J-2.875
G3 X38.4364 Y32.1368 I-1.3374 J-3.1553
G3 X37.8114 Y32.2274 I-0.8617 J-3.7434
G3 X37.18 Y32.2143 I-0.2367 J-3.834
G3 X36.5931 Y32.1013 I0.3521 J-3.4089
G3 X36.0347 Y31.888 I0.939 J-3.2959
G3 X35.4913 Y31.5663 I1.6784 J-3.4553
G3 X35.0079 Y31.16 I2.2219 J-3.1336
G3 X34.6218 Y30.7036 I2.4135 J-2.433
G3 X34.321 Y30.1871 I2.7995 J-1.9767
G3 X34.0998 Y29.5956 I3.4752 J-1.6367
G3 X33.9785 Y28.9759 I3.6964 J-1.0452
G3 X33.9574 Y28.5963 I3.4059 J-0.3796
G3 X33.9643 Y28.3783 I3.427 J0
G3 X33.9969 Y28.0771 I3.4201 J0.218
G3 X34.0542 Y27.7874 I3.3875 J0.5192
G3 X34.0738 Y27.7102 I3.7328 J0.9067
G3 X34.2532 Y27.188 I3.7132 J0.9839
G3 X34.5477 Y26.6294 I3.5338 J1.506
G3 X34.9117 Y26.1553 I2.8899 J1.842
G3 X35.3525 Y25.7517 I2.5259 J2.3161
G3 X35.8836 Y25.4099 I2.3372 J3.0485
G3 X35.9424 Y25.3952 I0.0588 J0.1103
G1 X36.8943 Y25.3952
G1 X36.8943 Y25.0793
G3 X36.8984 Y25.0477 I0.125 J0
G1 X36.9012 Y25.037
G3 X36.9917 Y24.7566 I2.6324 J0.695
G3 X37.1146 Y24.4809 I2.673 J1.0257
G3 X37.2516 Y24.2402 I2.6955 J1.3756
G3 X37.4224 Y23.9935 I3.022 J1.9091
G3 X37.6323 Y23.7384 I3.2047 J2.423
G3 X37.9043 Y23.4544 I4.2862 J3.833
G3 X38.1232 Y23.2499 I4.9204 J5.0465
G3 X38.4283 Y22.9845 I9.3984 J10.4969
G2 X39.0114 Y22.0564 I-13.0644 J-8.8551
G2 X39.2744 Y21.5838 I-12.7841 J-7.4255
G2 X39.4466 Y21.2507 I-13.0472 J-6.953
G2 X39.5181 Y21.1059 I-13.2193 J-6.6198
G2 X39.9533 Y20.121 I-12.9946 J-6.3307
G2 X40.3094 Y19.1179 I-13.1274 J-5.2255
G2 X40.5891 Y18.0908 I-13.4836 J-4.2224
G2 X40.7933 Y17.0336 I-14.0802 J-3.2689
G2 X40.9192 Y15.9639 I-14.6101 J-2.2621
G2 X40.9698 Y14.8525 I-15.7312 J-1.2729
G1 X40.9698 Y13.8189
G3 X41.0948 Y13.6939 I0.125 J0
G1 X41.8549 Y13.6939
G1 X42.2299 Y13.6939
G1 X43.5948 Y13.6939
G3 X43.7198 Y13.8189 I0 J0.125
G1 X43.7198 Y14.3189
G2 X43.7476 Y14.9261 I6.6462 J0
G2 X43.8275 Y15.4926 I5.8763 J-0.5391
G2 X43.9627 Y16.0477 I5.5568 J-1.0599
G2 X44.1497 Y16.5744 I5.1931 J-1.5469
G2 X44.3899 Y17.079 I5.0061 J-2.0736
G2 X44.6867 Y17.5671 I4.9756 J-2.6917
G2 X45.0309 Y18.0241 I4.8805 J-3.3169
G2 X45.4406 Y18.4732 I5.1093 J-4.2506
G2 X45.8896 Y18.8829 I4.6996 J-4.6996
G2 X46.3466 Y19.227 I3.7739 J-4.5364
G2 X46.8348 Y19.5239 I3.1798 J-4.6787
G2 X47.3394 Y19.7641 I2.5782 J-4.7659
G2 X47.866 Y19.951 I2.0736 J-5.0061
G2 X48.4211 Y20.0863 I1.615 J-5.4216
G2 X48.9876 Y20.1661 I1.1056 J-5.7964
G2 X49.5948 Y20.1939 I0.6072 J-6.6184
G1 Z-0.76 F36
G1 Z-0.5 F36
G1 X49.9698 Y20.1939 F36
G1 Z-0.76 F36
G1 X58.5948 Y20.1939 F36
G1 Z-0.5 F36
G1 X58.9698 Y20.1939 F36
G1 Z-0.76 F36
G1 X63.5221 Y20.1939 F36
G3 X63.8038 Y20.2121 I0 J2.1965
G3 X64.0724 Y20.2652 I-0.2639 J2.0402
G3 X64.3315 Y20.3535 I-0.5324 J1.9871
G3 X64.5846 Y20.4786 I-0.8452 J2.0274
G3 X64.8195 Y20.6352 I-1.0982 J1.9022
G3 X65.0255 Y20.8155 I-1.2486 J1.6349
G3 X65.2058 Y21.0215 I-1.4546 J1.4546
G3 X65.3624 Y21.2564 I-1.7456 J1.3332
G3 X65.4875 Y21.5095 I-1.9022 J1.0982
G3 X65.5758 Y21.7686 I-1.8988 J0.7916
G3 X65.6289 Y22.0372 I-1.9871 J0.5324
G3 X65.6471 Y22.3189 I-2.1783 J0.2817
G1 X65.6471 Y23.0528
G1 Z-0.5 F36
G1 X65.6471 Y23.4278 F36
G1 Z-0.76 F36
G1 X65.6471 Y26.3189 F36
G3 X65.6289 Y26.6006 I-2.1965 J0
G3 X65.5758 Y26.8692 I-2.0402 J-0.2639
G3 X65.4875 Y27.1284 I-1.9871 J-0.5324
G3 X65.3624 Y27.3814 I-2.0274 J-0.8452
G3 X65.2058 Y27.6163 I-1.9022 J-1.0982
G3 X65.0255 Y27.8224 I-1.6349 J-1.2486
G3 X64.8195 Y28.0026 I-1.4546 J-1.4546
G3 X64.5846 Y28.1592 I-1.3332 J-1.7456
G3 X64.3315 Y28.2844 I-1.0982 J-1.9022
G3 X64.0724 Y28.3727 I-0.7916 J-1.8988
G3 X63.8038 Y28.4258 I-0.5324 J-1.9871
G3 X63.5221 Y28.4439 I-0.2817 J-2.1783
G1 X63.146 Y28.4439
G2 X62.7802 Y28.4799 I0 J1.875
G2 X62.4284 Y28.5866 I0.3658 J1.839
G2 X62.1043 Y28.7599 I0.7175 J1.7323
G2 X61.8201 Y28.9931 I1.0417 J1.559
G1 X61.4339 Y29.3794
G1 Z-0.5 F36
G1 X61.406 Y29.4073 F36
G3 X61.3176 Y29.4439 I-0.0884 J-0.0884
G1 X61.0802 Y29.4439
G1 Z-0.76 F36
G1 X56.772 Y29.4439 F36
G3 X56.6836 Y29.4073 I0 J-0.125
G1 X56.2695 Y28.9931
G2 X55.9853 Y28.7599 I-1.3258 J1.3258
G2 X55.6612 Y28.5866 I-1.0417 J1.559
G2 X55.3094 Y28.4799 I-0.7175 J1.7323
G2 X54.9436 Y28.4439 I-0.3658 J1.839
G1 X54.5675 Y28.4439
G3 X54.153 Y28.4031 I0 J-2.125
G3 X53.7543 Y28.2822 I0.4146 J-2.0842
G3 X53.387 Y28.0858 I0.8132 J-1.9632
G3 X53.0649 Y27.8215 I1.1806 J-1.7669
G1 X52.9835 Y27.74
G1 Z-0.5 F36
G1 X52.7183 Y27.4749 F36
G1 Z-0.76 F36
G1 X50.9969 Y25.7535 F36
G2 X50.7128 Y25.5203 I-1.3258 J1.3258
G2 X50.3887 Y25.3471 I-1.0417 J1.559
G2 X50.0369 Y25.2404 I-0.7175 J1.7323
G2 X49.6711 Y25.2043 I-0.3658 J1.839
G1 X44.9531 Y25.2043
G1 Z-0.5 F36
G1 X44.5781 Y25.2043 F36
G1 Z-0.76 F36
G1 X43.3871 Y25.2043 F36
G2 X43.0437 Y25.2339 I0 J2.011
G2 X42.7345 Y25.3171 I0.299 J1.7258
G2 X42.4457 Y25.4553 I0.6082 J1.6426
G2 X42.1659 Y25.6565 I1.03 J1.7272
G2 X41.9246 Y25.9025 I1.3098 J1.526
G2 X41.7442 Y26.1671 I1.3509 J1.1149
G2 X41.615 Y26.4601 I1.5313 J0.8503
G2 X41.5338 Y26.795 I1.9065 J0.6399
G1 X41.1711 Y29.159
G3 X41.0243 Y29.7732 I-3.7969 J-0.5825
G3 X40.7893 Y30.3228 I-3.2565 J-1.0677
G3 X40.4623 Y30.8232 I-3.0214 J-1.6173
G3 X40.0925 Y31.2301 I-3.0202 J-2.3736
G1 Z-0.5 F36
G3 X40.0326 Y31.2859 I-2.6504 J-2.7805 F36
G3 X39.8088 Y31.4751 I-2.5905 J-2.8364
G1 Z-0.76 F36
G3 X39.5328 Y31.672 I-2.3667 J-3.0256 F36
G3 X39.0049 Y31.9524 I-1.8652 J-2.875
G3 X38.4364 Y32.1368 I-1.3374 J-3.1553
G3 X37.8114 Y32.2274 I-0.8617 J-3.7434
G3 X37.18 Y32.2143 I-0.2367 J-3.834
G3 X36.5931 Y32.1013 I0.3521 J-3.4089
G3 X36.0347 Y31.888 I0.939 J-3.2959
G3 X35.4913 Y31.5663 I1.6784 J-3.4553
G3 X35.0079 Y31.16 I2.2219 J-3.1336
G3 X34.6218 Y30.7036 I2.4135 J-2.433
G3 X34.321 Y30.1871 I2.7995 J-1.9767
G3 X34.0998 Y29.5956 I3.4752 J-1.6367
G3 X33.9785 Y28.9759 I3.6964 J-1.0452
G3 X33.9574 Y28.5963 I3.4059 J-0.3796
G3 X33.9643 Y28.3783 I3.427 J0
G3 X33.9969 Y28.0771 I3.4201 J0.218
G1 Z-0.5 F36
G3 X34.0542 Y27.7874 I3.3875 J0.5192 F36
G3 X34.0738 Y27.7102 I3.7328 J0.9067
G1 Z-0.76 F36
G3 X34.2532 Y27.188 I3.7132 J0.9839 F36
G3 X34.5477 Y26.6294 I3.5338 J1.506
G3 X34.9117 Y26.1553 I2.8899 J1.842
G3 X35.3525 Y25.7517 I2.5259 J2.3161
G3 X35.8836 Y25.4099 I2.3372 J3.0485
G3 X35.9424 Y25.3952 I0.0588 J0.1103
G1 X36.8943 Y25.3952
G1 X36.8943 Y25.0793
G3 X36.8984 Y25.0477 I0.125 J0
G1 X36.9012 Y25.037
G3 X36.9917 Y24.7566 I2.6324 J0.695
G3 X37.1146 Y24.4809 I2.673 J1.0257
G3 X37.2516 Y24.2402 I2.6955 J1.3756
G3 X37.4224 Y23.9935 I3.022 J1.9091
G3 X37.6323 Y23.7384 I3.2047 J2.423
G3 X37.9043 Y23.4544 I4.2862 J3.833
G3 X38.1232 Y23.2499 I4.9204 J5.0465
G3 X38.4283 Y22.9845 I9.3984 J10.4969
G2 X39.0114 Y22.0564 I-13.0644 J-8.8551
G2 X39.2744 Y21.5838 I-12.7841 J-7.4255
G1 Z-0.5 F36
G2 X39.4466 Y21.2507 I-13.0472 J-6.953 F36
G1 Z-0.76 F36
G2 X39.5181 Y21.1059 I-13.2193 J-6.6198 F36
G2 X39.9533 Y20.121 I-12.9946 J-6.3307
G2 X40.3094 Y19.1179 I-13.1274 J-5.2255
G2 X40.5891 Y18.0908 I-13.4836 J-4.2224
G2 X40.7933 Y17.0336 I-14.0802 J-3.2689
G2 X40.9192 Y15.9639 I-14.6101 J-2.2621
G2 X40.9698 Y14.8525 I-15.7312 J-1.2729
G1 X40.9698 Y13.8189
G3 X41.0948 Y13.6939 I0.125 J0
G1 X41.8549 Y13.6939
G1 Z-0.5 F36
G1 X42.2299 Y13.6939 F36
G1 Z-0.76 F36
G1 X43.5948 Y13.6939 F36
G3 X43.7198 Y13.8189 I0 J0.125
G1 X43.7198 Y14.3189
G2 X43.7476 Y14.9261 I6.6462 J0
G2 X43.8275 Y15.4926 I5.8763 J-0.5391
G2 X43.9627 Y16.0477 I5.5568 J-1.0599
G2 X44.1497 Y16.5744 I5.1931 J-1.5469
G2 X44.3899 Y17.079 I5.0061 J-2.0736
G2 X44.6867 Y17.5671 I4.9756 J-2.6917
G2 X45.0309 Y18.0241 I4.8805 J-3.3169
G2 X45.4406 Y18.4732 I5.1093 J-4.2506
G2 X45.8896 Y18.8829 I4.6996 J-4.6996
G2 X46.3466 Y19.227 I3.7739 J-4.5364
G2 X46.8348 Y19.5239 I3.1798 J-4.6787
G2 X47.3394 Y19.7641 I2.5782 J-4.7659
G2 X47.866 Y19.951 I2.0736 J-5.0061
G2 X48.4211 Y20.0863 I1.615 J-5.4216
G2 X48.9876 Y20.1661 I1.1056 J-5.7964
G2 X49.5948 Y20.1939 I0.6072 J-6.6184
G0 Z0.1
G0 X74.4974 Y38.951
G1 Z-0.38 F36
G1 X74.1224 Y38.951 F36
G1 X65.4974 Y38.951
G1 X65.1224 Y38.951
G1 X60.5702 Y38.951
G2 X59.9629 Y38.9788 I0 J6.6462
G2 X59.3964 Y39.0586 I0.5391 J5.8763
G2 X58.8414 Y39.1938 I1.0599 J5.5568
G2 X58.3147 Y39.3808 I1.5469 J5.1931
G2 X57.8101 Y39.621 I2.0736 J5.0061
G2 X57.322 Y39.9179 I2.6917 J4.9756
G2 X56.8649 Y40.262 I3.3169 J4.8805
G2 X56.82 Y40.2997 I4.2506 J5.1093
G2 X56.5408 Y40.55 I4.2955 J5.0716
G2 X56.4159 Y40.6717 I4.5747 J4.8212
G2 X56.0062 Y41.1207 I4.6996 J4.6996
G2 X55.6621 Y41.5778 I4.5364 J3.7739
G2 X55.3652 Y42.0659 I4.6787 J3.1798
G2 X55.125 Y42.5705 I4.7659 J2.5782
G2 X54.938 Y43.0972 I5.0061 J2.0736
G2 X54.8028 Y43.6522 I5.4216 J1.615
G2 X54.723 Y44.2187 I5.7964 J1.1056
G2 X54.6952 Y44.826 I6.6184 J0.6072
G1 X54.6952 Y45.326
G3 X54.5702 Y45.451 I-0.125 J0
G1 X52.0702 Y45.451
G3 X51.9452 Y45.326 I0 J-0.125
G1 X51.9452 Y44.8901
G1 X51.9452 Y44.5151
G1 X51.9452 Y44.2924
G2 X51.8946 Y43.181 I-15.7818 J0.1615
G2 X51.7686 Y42.1112 I-14.7361 J1.1924
G2 X51.5644 Y41.054 I-14.2845 J2.2117
G2 X51.2848 Y40.027 I-13.7632 J3.1953
G2 X50.9286 Y39.0239 I-13.4836 J4.2224
G2 X50.4934 Y38.039 I-13.4298 J5.3458
G2 X49.9867 Y37.0885 I-13.2908 J6.4751
G2 X49.5395 Y36.3642 I-13.6475 J7.927
G2 X49.4036 Y36.1604 I-13.2002 J8.6513
G3 X49.3047 Y36.076 I9.0933 J-10.7623
G3 X49.0985 Y35.895 I9.1922 J-10.6779
G3 X48.8796 Y35.6905 I4.7015 J-5.2511
G3 X48.6076 Y35.4064 I4.0141 J-4.117
G3 X48.3977 Y35.1513 I2.9948 J-2.6781
G3 X48.2269 Y34.9046 I2.8513 J-2.1558
G3 X48.0899 Y34.664 I2.5584 J-1.6162
G3 X47.9671 Y34.3883 I2.5502 J-1.3014
G3 X47.8765 Y34.1076 I2.5419 J-0.9754
G1 X47.8737 Y34.0972
G3 X47.8697 Y34.0655 I0.1209 J-0.0317
G3 X47.9947 Y33.9405 I0.125 J0
G1 X53.9086 Y33.9405
G1 X54.2836 Y33.9405
G1 X60.6464 Y33.9405
G2 X61.0122 Y33.9045 I0 J-1.875
G2 X61.364 Y33.7978 I-0.3658 J-1.839
G2 X61.6881 Y33.6245 I-0.7175 J-1.7323
G2 X61.9723 Y33.3914 I-1.0417 J-1.559
G1 X62.5305 Y32.8331
G1 X62.7957 Y32.5679
G1 X64.0403 Y31.3234
G3 X64.3623 Y31.0591 I1.5026 J1.5026
G3 X64.7297 Y30.8627 I1.1806 J1.7669
G3 X65.1283 Y30.7418 I0.8132 J1.9632
G3 X65.5429 Y30.701 I0.4146 J2.0842
G1 X65.919 Y30.701
G2 X66.2848 Y30.6649 I0 J-1.875
G2 X66.6365 Y30.5582 I-0.3658 J-1.839
G2 X66.9607 Y30.385 I-0.7175 J-1.7323
G2 X67.2448 Y30.1518 I-1.0417 J-1.559
G1 X67.659 Y29.7376
G3 X67.7474 Y29.701 I0.0884 J0.0884
G1 X70.4106 Y29.701
G1 X70.7856 Y29.701
G1 X72.2929 Y29.701
G3 X72.3813 Y29.7376 I0 J0.125
G1 X72.7955 Y30.1518
G2 X73.0796 Y30.385 I1.3258 J-1.3258
G2 X73.4038 Y30.5582 I1.0417 J-1.559
G2 X73.7555 Y30.6649 I0.7175 J-1.7323
G2 X74.1213 Y30.701 I0.3658 J-1.839
G1 X74.4974 Y30.701
G3 X74.9274 Y30.7416 I0 J2.2949
G3 X75.313 Y30.8569 I-0.3699 J1.9393
G3 X75.6672 Y31.048 I-0.7555 J1.824
G3 X76 Y31.3234 I-1.29 J1.8981
G3 X76.2753 Y31.6561 I-1.6228 J1.6228
G3 X76.4664 Y32.0104 I-1.6329 J1.1097
G3 X76.5817 Y32.396 I-1.824 J0.7555
G3 X76.6224 Y32.826 I-2.2543 J0.43
G1 X76.6224 Y36.826
G3 X76.5817 Y37.256 I-2.2949 J0
G3 X76.4664 Y37.6416 I-1.9393 J-0.3699
G3 X76.2753 Y37.9958 I-1.824 J-0.7555
G3 X76 Y38.3286 I-1.8981 J-1.29
G3 X75.6672 Y38.6039 I-1.6228 J-1.6228
G3 X75.313 Y38.795 I-1.1097 J-1.6329
G3 X74.9274 Y38.9103 I-0.7555 J-1.824
G3 X74.4974 Y38.951 I-0.43 J-2.2543
G1 Z-0.76 F36
G1 Z-0.5 F36
G1 X74.1224 Y38.951 F36
G1 Z-0.76 F36
G1 X65.4974 Y38.951 F36
G1 Z-0.5 F36
G1 X65.1224 Y38.951 F36
G1 Z-0.76 F36
G1 X60.5702 Y38.951 F36
G2 X59.9629 Y38.9788 I0 J6.6462
G2 X59.3964 Y39.0586 I0.5391 J5.8763
G2 X58.8414 Y39.1938 I1.0599 J5.5568
G2 X58.3147 Y39.3808 I1.5469 J5.1931
G2 X57.8101 Y39.621 I2.0736 J5.0061
G2 X57.322 Y39.9179 I2.6917 J4.9756
G2 X56.8649 Y40.262 I3.3169 J4.8805
G2 X56.82 Y40.2997 I4.2506 J5.1093
G1 Z-0.5 F36
G2 X56.5408 Y40.55 I4.2955 J5.0716 F36
G1 Z-0.76 F36
G2 X56.4159 Y40.6717 I4.5747 J4.8212 F36
G2 X56.0062 Y41.1207 I4.6996 J4.6996
G2 X55.6621 Y41.5778 I4.5364 J3.7739
G2 X55.3652 Y42.0659 I4.6787 J3.1798
G2 X55.125 Y42.5705 I4.7659 J2.5782
G2 X54.938 Y43.0972 I5.0061 J2.0736
G2 X54.8028 Y43.6522 I5.4216 J1.615
G2 X54.723 Y44.2187 I5.7964 J1.1056
G2 X54.6952 Y44.826 I6.6184 J0.6072
G1 X54.6952 Y45.326
G3 X54.5702 Y45.451 I-0.125 J0
G1 X52.0702 Y45.451
G3 X51.9452 Y45.326 I0 J-0.125
G1 X51.9452 Y44.8901
G1 Z-0.5 F36
G1 X51.9452 Y44.5151 F36
G1 Z-0.76 F36
G1 X51.9452 Y44.2924 F36
G2 X51.8946 Y43.181 I-15.7818 J0.1615
G2 X51.7686 Y42.1112 I-14.7361 J1.1924
G2 X51.5644 Y41.054 I-14.2845 J2.2117
G2 X51.2848 Y40.027 I-13.7632 J3.1953
G2 X50.9286 Y39.0239 I-13.4836 J4.2224
G2 X50.4934 Y38.039 I-13.4298 J5.3458
G2 X49.9867 Y37.0885 I-13.2908 J6.4751
G2 X49.5395 Y36.3642 I-13.6475 J7.927
G1 Z-0.5 F36
G2 X49.4036 Y36.1604 I-13.2002 J8.6513 F36
G3 X49.3047 Y36.076 I9.0933 J-10.7623
G1 Z-0.76 F36
G3 X49.0985 Y35.895 I9.1922 J-10.6779 F36
G3 X48.8796 Y35.6905 I4.7015 J-5.2511
G3 X48.6076 Y35.4064 I4.0141 J-4.117
G3 X48.3977 Y35.1513 I2.9948 J-2.6781
G3 X48.2269 Y34.9046 I2.8513 J-2.1558
G3 X48.0899 Y34.664 I2.5584 J-1.6162
G3 X47.9671 Y34.3883 I2.5502 J-1.3014
G3 X47.8765 Y34.1076 I2.5419 J-0.9754
G1 X47.8737 Y34.0972
G3 X47.8697 Y34.0655 I0.1209 J-0.0317
G3 X47.9947 Y33.9405 I0.125 J0
G1 X53.9086 Y33.9405
G1 Z-0.5 F36
G1 X54.2836 Y33.9405 F36
G1 Z-0.76 F36
G1 X60.6464 Y33.9405 F36
G2 X61.0122 Y33.9045 I0 J-1.875
G2 X61.364 Y33.7978 I-0.3658 J-1.839
G2 X61.6881 Y33.6245 I-0.7175 J-1.7323
G2 X61.9723 Y33.3914 I-1.0417 J-1.559
G1 X62.5305 Y32.8331
G1 Z-0.5 F36
G1 X62.7957 Y32.5679 F36
G1 Z-0.76 F36
G1 X64.0403 Y31.3234 F36
G3 X64.3623 Y31.0591 I1.5026 J1.5026
G3 X64.7297 Y30.8627 I1.1806 J1.7669
G3 X65.1283 Y30.7418 I0.8132 J1.9632
G3 X65.5429 Y30.701 I0.4146 J2.0842
G1 X65.919 Y30.701
G2 X66.2848 Y30.6649 I0 J-1.875
G2 X66.6365 Y30.5582 I-0.3658 J-1.839
G2 X66.9607 Y30.385 I-0.7175 J-1.7323
G2 X67.2448 Y30.1518 I-1.0417 J-1.559
G1 X67.659 Y29.7376
G3 X67.7474 Y29.701 I0.0884 J0.0884
G1 X70.4106 Y29.701
G1 Z-0.5 F36
G1 X70.7856 Y29.701 F36
G1 Z-0.76 F36
G1 X72.2929 Y29.701 F36
G3 X72.3813 Y29.7376 I0 J0.125
G1 X72.7955 Y30.1518
G2 X73.0796 Y30.385 I1.3258 J-1.3258
G2 X73.4038 Y30.5582 I1.0417 J-1.559
G2 X73.7555 Y30.6649 I0.7175 J-1.7323
G2 X74.1213 Y30.701 I0.3658 J-1.839
G1 X74.4974 Y30.701
G3 X74.9274 Y30.7416 I0 J2.2949
G3 X75.313 Y30.8569 I-0.3699 J1.9393
G3 X75.6672 Y31.048 I-0.7555 J1.824
G3 X76 Y31.3234 I-1.29 J1.8981
G3 X76.2753 Y31.6561 I-1.6228 J1.6228
G3 X76.4664 Y32.0104 I-1.6329 J1.1097
G3 X76.5817 Y32.396 I-1.824 J0.7555
G3 X76.6224 Y32.826 I-2.2543 J0.43
G1 X76.6224 Y36.826
G3 X76.5817 Y37.256 I-2.2949 J0
G3 X76.4664 Y37.6416 I-1.9393 J-0.3699
G3 X76.2753 Y37.9958 I-1.824 J-0.7555
G3 X76 Y38.3286 I-1.8981 J-1.29
G3 X75.6672 Y38.6039 I-1.6228 J-1.6228
G3 X75.313 Y38.795 I-1.1097 J-1.6329
G3 X74.9274 Y38.9103 I-0.7555 J-1.824
G3 X74.4974 Y38.951 I-0.43 J-2.2543
G0 Z0.1
G0 X3.8892 Y15.3722
G1 Z-0.38 F36
G1 X4.2642 Y15.3722 F36
G1 X10.8892 Y15.3722
G3 X11.0142 Y15.4972 I0 J0.125
G1 X11.0142 Y15.9472
G3 X10.9758 Y16.2384 I-1.125 J0
G3 X10.8634 Y16.5097 I-1.0867 J-0.2912
G3 X10.6847 Y16.7427 I-0.9743 J-0.5625
G3 X10.4517 Y16.9215 I-0.7955 J-0.7955
G3 X10.2934 Y16.9971 I-0.5625 J-0.9743
G3 X10.1803 Y17.0339 I-0.4042 J-1.0499
G3 X9.9276 Y17.0716 I-0.2912 J-1.0867
G3 X9.8892 Y17.0722 I-0.0385 J-1.1243
G1 X7.5539 Y17.0722
G2 X7.4496 Y17.0817 I0 J0.5758
G2 X7.3594 Y17.1077 I0.0868 J0.4716
G2 X7.276 Y17.1507 I0.177 J0.4456
G2 X7.1936 Y17.2153 I0.3128 J0.4835
G2 X7.1243 Y17.2938 I0.3952 J0.4188
G2 X7.0765 Y17.3746 I0.3868 J0.2834
G2 X7.0453 Y17.4632 I0.4346 J0.2026
G2 X7.0298 Y17.5667 I0.5593 J0.137
G2 X7.0288 Y17.6002 I0.5749 J0.0335
G2 X7.0332 Y17.6713 I0.5758 J0
G2 X7.0539 Y17.7629 I0.4758 J-0.0593
G2 X7.092 Y17.8487 I0.4552 J-0.1508
G2 X7.1517 Y17.9347 I0.5008 J-0.2842
G1 X10.403 Y21.8094
G1 X10.644 Y22.0966
G1 X11.074 Y22.609
G3 X11.3452 Y22.9941 I-2.1368 J1.793
G3 X11.5343 Y23.3969 I-2.137 J1.2494
G3 X11.6483 Y23.827 I-2.3261 J0.8466
G3 X11.6881 Y24.2963 I-2.7496 J0.4693
G1 X11.6881 Y24.4972
G3 X11.5631 Y24.6222 I-0.125 J0
G1 X5.8385 Y24.6222
G1 X5.4635 Y24.6222
G1 X4.5631 Y24.6222
G3 X4.4381 Y24.4972 I0 J-0.125
G1 X4.4381 Y24.0472
G3 X4.4595 Y23.8205 I1.21 J0
G3 X4.5208 Y23.6155 I1.0311 J0.1967
G3 X4.6224 Y23.4272 I0.9697 J0.4017
G3 X4.7676 Y23.2517 I1.0007 J0.6801
G3 X4.9431 Y23.1066 I0.8556 J0.8556
G3 X5.1314 Y23.005 I0.59 J0.8681
G3 X5.3364 Y22.9436 I0.4017 J0.9697
G3 X5.5631 Y22.9222 I0.2267 J1.1885
G1 X7.8984 Y22.9222
G2 X8.0026 Y22.9127 I0 J-0.5758
G2 X8.0928 Y22.8867 I-0.0868 J-0.4716
G2 X8.1763 Y22.8437 I-0.177 J-0.4456
G2 X8.2586 Y22.7791 I-0.3128 J-0.4835
G2 X8.3279 Y22.7006 I-0.3952 J-0.4188
G2 X8.3757 Y22.6198 I-0.3868 J-0.2834
G2 X8.4069 Y22.5313 I-0.4346 J-0.2026
G2 X8.4225 Y22.4277 I-0.5593 J-0.137
G2 X8.4234 Y22.3943 I-0.5749 J-0.0335
G2 X8.419 Y22.3231 I-0.5758 J0
G2 X8.3984 Y22.2315 I-0.4758 J0.0593
G2 X8.3603 Y22.1457 I-0.4552 J0.1508
G2 X8.3005 Y22.0598 I-0.5008 J0.2842
G1 X4.3783 Y17.3854
G3 X4.1071 Y17.0004 I2.1368 J-1.793
G3 X3.9179 Y16.5976 I2.137 J-1.2494
G3 X3.8039 Y16.1674 I2.3261 J-0.8466
G3 X3.7642 Y15.6981 I2.7496 J-0.4693
G1 X3.7642 Y15.4972
G3 X3.8892 Y15.3722 I0.125 J0
G1 Z-0.76 F36
G1 Z-0.5 F36
G1 X4.2642 Y15.3722 F36
G1 Z-0.76 F36
G1 X10.8892 Y15.3722 F36
G3 X11.0142 Y15.4972 I0 J0.125
G1 X11.0142 Y15.9472
G3 X10.9758 Y16.2384 I-1.125 J0
G3 X10.8634 Y16.5097 I-1.0867 J-0.2912
G3 X10.6847 Y16.7427 I-0.9743 J-0.5625
G3 X10.4517 Y16.9215 I-0.7955 J-0.7955
G3 X10.2934 Y16.9971 I-0.5625 J-0.9743
G1 Z-0.5 F36
G3 X10.1803 Y17.0339 I-0.4042 J-1.0499 F36
G3 X9.9276 Y17.0716 I-0.2912 J-1.0867
G1 Z-0.76 F36
G3 X9.8892 Y17.0722 I-0.0385 J-1.1243 F36
G1 X7.5539 Y17.0722
G2 X7.4496 Y17.0817 I0 J0.5758
G2 X7.3594 Y17.1077 I0.0868 J0.4716
G2 X7.276 Y17.1507 I0.177 J0.4456
G2 X7.1936 Y17.2153 I0.3128 J0.4835
G2 X7.1243 Y17.2938 I0.3952 J0.4188
G2 X7.0765 Y17.3746 I0.3868 J0.2834
G2 X7.0453 Y17.4632 I0.4346 J0.2026
G2 X7.0298 Y17.5667 I0.5593 J0.137
G2 X7.0288 Y17.6002 I0.5749 J0.0335
G2 X7.0332 Y17.6713 I0.5758 J0
G2 X7.0539 Y17.7629 I0.4758 J-0.0593
G2 X7.092 Y17.8487 I0.4552 J-0.1508
G2 X7.1517 Y17.9347 I0.5008 J-0.2842
G1 X10.403 Y21.8094
G1 Z-0.5 F36
G1 X10.644 Y22.0966 F36
G1 Z-0.76 F36
G1 X11.074 Y22.609 F36
G3 X11.3452 Y22.9941 I-2.1368 J1.793
G3 X11.5343 Y23.3969 I-2.137 J1.2494
G3 X11.6483 Y23.827 I-2.3261 J0.8466
G3 X11.6881 Y24.2963 I-2.7496 J0.4693
G1 X11.6881 Y24.4972
G3 X11.5631 Y24.6222 I-0.125 J0
G1 X5.8385 Y24.6222
G1 Z-0.5 F36
G1 X5.4635 Y24.6222 F36
G1 Z-0.76 F36
G1 X4.5631 Y24.6222 F36
G3 X4.4381 Y24.4972 I0 J-0.125
G1 X4.4381 Y24.0472
G3 X4.4595 Y23.8205 I1.21 J0
G3 X4.5208 Y23.6155 I1.0311 J0.1967
G3 X4.6224 Y23.4272 I0.9697 J0.4017
G3 X4.7676 Y23.2517 I1.0007 J0.6801
G3 X4.9431 Y23.1066 I0.8556 J0.8556
G3 X5.1314 Y23.005 I0.59 J0.8681
G3 X5.3364 Y22.9436 I0.4017 J0.9697
G3 X5.5631 Y22.9222 I0.2267 J1.1885
G1 X7.8984 Y22.9222
G2 X8.0026 Y22.9127 I0 J-0.5758
G2 X8.0928 Y22.8867 I-0.0868 J-0.4716
G2 X8.1763 Y22.8437 I-0.177 J-0.4456
G2 X8.2586 Y22.7791 I-0.3128 J-0.4835
G2 X8.3279 Y22.7006 I-0.3952 J-0.4188
G2 X8.3757 Y22.6198 I-0.3868 J-0.2834
G2 X8.4069 Y22.5313 I-0.4346 J-0.2026
G2 X8.4225 Y22.4277 I-0.5593 J-0.137
G2 X8.4234 Y22.3943 I-0.5749 J-0.0335
G2 X8.419 Y22.3231 I-0.5758 J0
G2 X8.3984 Y22.2315 I-0.4758 J0.0593
G2 X8.3603 Y22.1457 I-0.4552 J0.1508
G2 X8.3005 Y22.0598 I-0.5008 J0.2842
G1 X4.3783 Y17.3854
G3 X4.1071 Y17.0004 I2.1368 J-1.793
G3 X3.9179 Y16.5976 I2.137 J-1.2494
G3 X3.8039 Y16.1674 I2.3261 J-0.8466
G3 X3.7642 Y15.6981 I2.7496 J-0.4693
G1 X3.7642 Y15.4972
G3 X3.8892 Y15.3722 I0.125 J0
G0 Z0.1
G0 X21.6878 Y24.972
G1 Z-0.38 F36
G1 X21.3128 Y24.972 F36
G1 X14.6878 Y24.972
G3 X14.5628 Y24.847 I0 J-0.125
G1 X14.5628 Y24.397
G3 X14.5842 Y24.1703 I1.21 J0
G3 X14.6455 Y23.9653 I1.0311 J0.1967
G3 X14.7471 Y23.777 I0.9697 J0.4017
G3 X14.8923 Y23.6015 I1.0007 J0.6801
G3 X15.0677 Y23.4564 I0.8556 J0.8556
G3 X15.2561 Y23.3547 I0.59 J0.8681
G3 X15.2806 Y23.3449 I0.4017 J0.9697
G3 X15.4611 Y23.2934 I0.3771 J0.9795
G3 X15.6468 Y23.2727 I0.2267 J1.1885
G3 X15.6878 Y23.272 I0.041 J1.2093
G1 X18.023 Y23.272
G2 X18.1273 Y23.2625 I0 J-0.5758
G2 X18.2175 Y23.2365 I-0.0868 J-0.4716
G2 X18.3009 Y23.1935 I-0.177 J-0.4456
G2 X18.3833 Y23.1289 I-0.3128 J-0.4835
G2 X18.4526 Y23.0504 I-0.3952 J-0.4188
G2 X18.5004 Y22.9696 I-0.3868 J-0.2834
G2 X18.5316 Y22.8811 I-0.4346 J-0.2026
G2 X18.5472 Y22.7775 I-0.5593 J-0.137
G2 X18.5481 Y22.7441 I-0.5749 J-0.0335
G2 X18.5437 Y22.6729 I-0.5758 J0
G2 X18.5231 Y22.5813 I-0.4758 J0.0593
G2 X18.4849 Y22.4955 I-0.4552 J0.1508
G2 X18.4252 Y22.4095 I-0.5008 J0.2842
G1 X15.1756 Y18.5368
G1 X14.9345 Y18.2495
G1 X14.503 Y17.7352
G3 X14.2318 Y17.3501 I2.1368 J-1.793
G3 X14.0426 Y16.9473 I2.137 J-1.2494
G3 X13.9286 Y16.5172 I2.3261 J-0.8466
G3 X13.8888 Y16.0479 I2.7496 J-0.4693
G1 X13.8888 Y15.847
G3 X14.0138 Y15.722 I0.125 J0
G1 X19.736 Y15.722
G1 X20.111 Y15.722
G1 X21.0138 Y15.722
G3 X21.1388 Y15.847 I0 J0.125
G1 X21.1388 Y16.297
G3 X21.1174 Y16.5237 I-1.21 J0
G3 X21.0561 Y16.7287 I-1.0311 J-0.1967
G3 X20.9545 Y16.917 I-0.9697 J-0.4017
G3 X20.8093 Y17.0925 I-1.0007 J-0.6801
G3 X20.6339 Y17.2377 I-0.8556 J-0.8556
G3 X20.4456 Y17.3393 I-0.59 J-0.8681
G3 X20.2406 Y17.4006 I-0.4017 J-0.9697
G3 X20.0138 Y17.422 I-0.2267 J-1.1885
G1 X17.6786 Y17.422
G2 X17.5743 Y17.4315 I0 J0.5758
G2 X17.4841 Y17.4575 I0.0868 J0.4716
G2 X17.4007 Y17.5005 I0.177 J0.4456
G2 X17.3183 Y17.5651 I0.3128 J0.4835
G2 X17.249 Y17.6436 I0.3952 J0.4188
G2 X17.2012 Y17.7244 I0.3868 J0.2834
G2 X17.17 Y17.8129 I0.4346 J0.2026
G2 X17.1545 Y17.9165 I0.5593 J0.137
G2 X17.1535 Y17.95 I0.5749 J0.0335
G2 X17.1579 Y18.0211 I0.5758 J0
G2 X17.1786 Y18.1127 I0.4758 J-0.0593
G2 X17.2167 Y18.1985 I0.4552 J-0.1508
G2 X17.2764 Y18.2845 I0.5008 J-0.2842
G1 X21.1986 Y22.9588
G3 X21.4698 Y23.3439 I-2.1368 J1.793
G3 X21.659 Y23.7467 I-2.137 J1.2494
G3 X21.773 Y24.1768 I-2.3261 J0.8466
G3 X21.8128 Y24.6461 I-2.7496 J0.4693
G1 X21.8128 Y24.847
G3 X21.6878 Y24.972 I-0.125 J0
G1 Z-0.76 F36
G1 Z-0.5 F36
G1 X21.3128 Y24.972 F36
G1 Z-0.76 F36
G1 X14.6878 Y24.972 F36
G3 X14.5628 Y24.847 I0 J-0.125
G1 X14.5628 Y24.397
G3 X14.5842 Y24.1703 I1.21 J0
G3 X14.6455 Y23.9653 I1.0311 J0.1967
G3 X14.7471 Y23.777 I0.9697 J0.4017
G3 X14.8923 Y23.6015 I1.0007 J0.6801
G3 X15.0677 Y23.4564 I0.8556 J0.8556
G3 X15.2561 Y23.3547 I0.59 J0.8681
G3 X15.2806 Y23.3449 I0.4017 J0.9697
G1 Z-0.5 F36
G3 X15.4611 Y23.2934 I0.3771 J0.9795 F36
G3 X15.6468 Y23.2727 I0.2267 J1.1885
G1 Z-0.76 F36
G3 X15.6878 Y23.272 I0.041 J1.2093 F36
G1 X18.023 Y23.272
G2 X18.1273 Y23.2625 I0 J-0.5758
G2 X18.2175 Y23.2365 I-0.0868 J-0.4716
G2 X18.3009 Y23.1935 I-0.177 J-0.4456
G2 X18.3833 Y23.1289 I-0.3128 J-0.4835
G2 X18.4526 Y23.0504 I-0.3952 J-0.4188
G2 X18.5004 Y22.9696 I-0.3868 J-0.2834
G2 X18.5316 Y22.8811 I-0.4346 J-0.2026
G2 X18.5472 Y22.7775 I-0.5593 J-0.137
G2 X18.5481 Y22.7441 I-0.5749 J-0.0335
G2 X18.5437 Y22.6729 I-0.5758 J0
G2 X18.5231 Y22.5813 I-0.4758 J0.0593
G2 X18.4849 Y22.4955 I-0.4552 J0.1508
G2 X18.4252 Y22.4095 I-0.5008 J0.2842
G1 X15.1756 Y18.5368
G1 Z-0.5 F36
G1 X14.9345 Y18.2495 F36
G1 Z-0.76 F36
G1 X14.503 Y17.7352 F36
G3 X14.2318 Y17.3501 I2.1368 J-1.793
G3 X14.0426 Y16.9473 I2.137 J-1.2494
G3 X13.9286 Y16.5172 I2.3261 J-0.8466
G3 X13.8888 Y16.0479 I2.7496 J-0.4693
G1 X13.8888 Y15.847
G3 X14.0138 Y15.722 I0.125 J0
G1 X19.736 Y15.722
G1 Z-0.5 F36
G1 X20.111 Y15.722 F36
G1 Z-0.76 F36
G1 X21.0138 Y15.722 F36
G3 X21.1388 Y15.847 I0 J0.125
G1 X21.1388 Y16.297
G3 X21.1174 Y16.5237 I-1.21 J0
G3 X21.0561 Y16.7287 I-1.0311 J-0.1967
G3 X20.9545 Y16.917 I-0.9697 J-0.4017
G3 X20.8093 Y17.0925 I-1.0007 J-0.6801
G3 X20.6339 Y17.2377 I-0.8556 J-0.8556
G3 X20.4456 Y17.3393 I-0.59 J-0.8681
G3 X20.2406 Y17.4006 I-0.4017 J-0.9697
G3 X20.0138 Y17.422 I-0.2267 J-1.1885
G1 X17.6786 Y17.422
G2 X17.5743 Y17.4315 I0 J0.5758
G2 X17.4841 Y17.4575 I0.0868 J0.4716
G2 X17.4007 Y17.5005 I0.177 J0.4456
G2 X17.3183 Y17.5651 I0.3128 J0.4835
G2 X17.249 Y17.6436 I0.3952 J0.4188
G2 X17.2012 Y17.7244 I0.3868 J0.2834
G2 X17.17 Y17.8129 I0.4346 J0.2026
G2 X17.1545 Y17.9165 I0.5593 J0.137
G2 X17.1535 Y17.95 I0.5749 J0.0335
G2 X17.1579 Y18.0211 I0.5758 J0
G2 X17.1786 Y18.1127 I0.4758 J-0.0593
G2 X17.2167 Y18.1985 I0.4552 J-0.1508
G2 X17.2764 Y18.2845 I0.5008 J-0.2842
G1 X21.1986 Y22.9588
G3 X21.4698 Y23.3439 I-2.1368 J1.793
G3 X21.659 Y23.7467 I-2.137 J1.2494
G3 X21.773 Y24.1768 I-2.3261 J0.8466
G3 X21.8128 Y24.6461 I-2.7496 J0.4693
G1 X21.8128 Y24.847
G3 X21.6878 Y24.972 I-0.125 J0
G0 Z0.1
G0 X36.0379 Y3.287
G1 Z-0.38 F36
G3 X36.4129 Y3.2883 I-0.1348 J93.3512 F36
G3 X42.6181 Y3.5287 I-0.5098 J93.3499
G3 X43.2046 Y3.5966 I-0.4916 J6.816
G3 X43.7552 Y3.7105 I-0.9754 J6.1051
G3 X44.293 Y3.8748 I-1.4732 J5.7842
G3 X44.8038 Y4.0857 I-1.9405 J5.4227
G3 X44.9347 Y4.1493 I-2.4513 J5.2118
G3 X45.2642 Y4.3282 I-2.5822 J5.1482
G3 X45.292 Y4.3446 I-2.9117 J4.9693
G3 X45.7616 Y4.6541 I-3.0464 J5.133
G3 X46.2004 Y5.0056 I-3.6418 J4.9961
G3 X46.6267 Y5.4141 I-4.5103 J5.1338
G3 X47.0162 Y5.8579 I-4.9367 J4.7253
G3 X47.3481 Y6.3116 I-4.8186 J3.8736
G3 X47.6368 Y6.7943 I-4.9726 J3.3017
G3 X47.8741 Y7.2934 I-5.0766 J2.7201
G3 X48.0625 Y7.8129 I-5.314 J2.221
G3 X48.2032 Y8.3574 I-5.7025 J1.7634
G3 X48.2928 Y8.9124 I-6.0523 J1.2625
G3 X48.335 Y9.5013 I-6.7888 J0.782
G3 X48.3443 Y10.1579 I-23.2323 J0.6566
G3 X48.333 Y10.8798 I-23.2416 J0
G3 X48.2833 Y11.84 I-23.2304 J-0.7219
G3 X48.2532 Y12.2137 I-23.1806 J-1.682
G3 X48.2494 Y12.2557 I-23.1505 J-2.0558
G3 X48.2051 Y12.5099 I-1.5643 J-0.1418
G3 X48.1227 Y12.7413 I-1.3643 J-0.3554
G3 X48.0014 Y12.9549 I-1.2819 J-0.5868
G3 X47.838 Y13.1546 I-1.2931 J-0.8917
G3 X47.6441 Y13.3248 I-1.1296 J-1.0914
G3 X47.4348 Y13.4533 I-0.8399 J-1.1324
G3 X47.2063 Y13.5437 I-0.6306 J-1.2609
G3 X46.9539 Y13.5967 I-0.4481 J-1.5055
G3 X46.6961 Y13.6077 I-0.1956 J-1.5585
G3 X46.4524 Y13.5766 I0.0558 J-1.4087
G3 X46.2178 Y13.5037 I0.2995 J-1.3777
G3 X45.9879 Y13.3867 I0.595 J-1.4537
G3 X45.5959 Y13.0803 I1.1851 J-1.9203
G3 X45.2806 Y12.6955 I1.5771 J-1.6139
G3 X44.73 Y11.794 I15.9811 J-10.3789
G3 X44.2302 Y10.8633 I16.5317 J-9.4774
G2 X43.9408 Y10.3816 I-3.3144 J1.6632
G2 X43.5989 Y9.9727 I-2.7303 J1.936
G2 X43.1964 Y9.6234 I-2.3884 J2.3449
G2 X42.7201 Y9.3251 I-2.2003 J2.985
G2 X42.4881 Y9.2191 I-1.0829 J2.0624
G2 X42.3527 Y9.1707 I-0.851 J2.1685
G2 X42.1291 Y9.1124 I-0.6242 J1.934
G2 X41.9908 Y9.0895 I-0.4007 J1.9924
G2 X41.6202 Y9.0754 I-0.2624 J2.0153
G2 X41.2255 Y9.1306 I0.124 J2.3262
G2 X40.846 Y9.2522 I0.5187 J2.271
G2 X40.5183 Y9.4259 I0.7836 J1.8751
G2 X40.2276 Y9.6561 I1.1114 J1.7015
G2 X39.9637 Y9.9548 I1.6071 J1.6863
G1 X38.7444 Y11.5987
G3 X38.6411 Y11.7085 I-0.5195 J-0.3853
G3 X38.5152 Y11.7914 I-0.4162 J-0.4951
G3 X38.3736 Y11.8429 I-0.2903 J-0.578
G3 X38.2238 Y11.8602 I-0.1487 J-0.6295
G1 X34.7013 Y11.8543
G1 X34.3271 Y11.8537
G1 X34.3263 Y11.8537
G3 X34.1646 Y11.8327 I0.0019 J-0.6468
G3 X34.0125 Y11.7715 I0.1636 J-0.6258
G3 X33.8808 Y11.674 I0.3156 J-0.5646
G3 X33.7819 Y11.5533 I0.4474 J-0.4671
G1 X32.5108 Y9.9582
G2 X32.2134 Y9.6457 I-1.9238 J1.5331
G2 X31.8898 Y9.4106 I-1.4086 J1.5984
G2 X31.528 Y9.2401 I-1.0851 J1.8335
G2 X31.111 Y9.1298 I-0.8351 J2.3139
G2 X30.6811 Y9.0941 I-0.4181 J2.4242
G2 X30.2831 Y9.1335 I0.0102 J2.1305
G2 X29.8995 Y9.2467 I0.4082 J2.0911
G2 X29.5147 Y9.4415 I0.9143 J2.2838
G2 X29.0201 Y9.813 I1.8594 J2.99
G2 X28.5982 Y10.2654 I2.354 J2.6184
G2 X27.9846 Y11.0979 I14.8259 J11.5691
G2 X27.7965 Y11.3737 I15.4395 J10.7366
G2 X27.591 Y11.6874 I15.6277 J10.4608
G2 X27.4178 Y11.9628 I15.8332 J10.1471
G3 X26.9016 Y12.7349 I-10.7751 J-6.6453
G3 X26.3301 Y13.4671 I-10.2589 J-7.4174
G3 X26.1629 Y13.637 I-1.1675 J-0.9821
G3 X25.9788 Y13.7719 I-0.908 J-1.0459
G3 X25.7751 Y13.8748 I-0.724 J-1.1808
G3 X25.5479 Y13.9468 I-0.5731 J-1.4139
G3 X25.3122 Y13.9825 I-0.3458 J-1.4859
G3 X25.084 Y13.9802 I-0.1 J-1.3814
G3 X24.8593 Y13.9404 I0.1282 J-1.3791
G3 X24.6342 Y13.8619 I0.3887 J-1.4753
G3 X24.4241 Y13.7492 I0.6138 J-1.3967
G3 X24.2428 Y13.6105 I0.748 J-1.1657
G3 X24.0868 Y13.444 I0.9292 J-1.0271
G3 X23.9537 Y13.2462 I1.1954 J-0.9479
G3 X23.7972 Y12.9155 I2.2113 J-1.2486
G3 X23.6899 Y12.5656 I2.3678 J-0.9178
G3 X23.505 Y11.3915 I8.356 J-1.9176
G3 X23.4752 Y10.7055 I7.8801 J-0.686
G3 X23.4884 Y10.2492 I7.9099 J0
G3 X23.5422 Y9.6783 I7.8967 J0.4563
G3 X23.5997 Y9.3077 I7.8429 J1.0273
G3 X23.6365 Y9.1165 I7.7854 J1.3978
G3 X23.954 Y7.9753 I8.3984 J1.7223
G3 X24.2846 Y7.0723 I6.2177 J1.7642
G3 X24.7298 Y6.2647 I5.3587 J2.4278
G3 X25.2958 Y5.5367 I4.9135 J3.2354
G3 X25.9978 Y4.8736 I4.7762 J4.3543
G3 X26.7909 Y4.3226 I4.0742 J5.0173
G3 X27.6196 Y3.9182 I2.9867 J5.0685
G3 X28.5014 Y3.6482 I2.1579 J5.473
G3 X29.4571 Y3.5097 I1.402 J6.3093
G3 X36.0379 Y3.287 I6.446 J93.1285
G1 Z-0.76 F36
G1 Z-0.5 F36
G3 X36.4129 Y3.2883 I-0.1348 J93.3512 F36
G1 Z-0.76 F36
G3 X42.6181 Y3.5287 I-0.5098 J93.3499 F36
G3 X43.2046 Y3.5966 I-0.4916 J6.816
G3 X43.7552 Y3.7105 I-0.9754 J6.1051
G3 X44.293 Y3.8748 I-1.4732 J5.7842
G3 X44.8038 Y4.0857 I-1.9405 J5.4227
G3 X44.9347 Y4.1493 I-2.4513 J5.2118
G1 Z-0.5 F36
G3 X45.2642 Y4.3282 I-2.5822 J5.1482 F36
G1 Z-0.76 F36
G3 X45.292 Y4.3446 I-2.9117 J4.9693 F36
G3 X45.7616 Y4.6541 I-3.0464 J5.133
G3 X46.2004 Y5.0056 I-3.6418 J4.9961
G3 X46.6267 Y5.4141 I-4.5103 J5.1338
G3 X47.0162 Y5.8579 I-4.9367 J4.7253
G3 X47.3481 Y6.3116 I-4.8186 J3.8736
G3 X47.6368 Y6.7943 I-4.9726 J3.3017
G3 X47.8741 Y7.2934 I-5.0766 J2.7201
G3 X48.0625 Y7.8129 I-5.314 J2.221
G3 X48.2032 Y8.3574 I-5.7025 J1.7634
G3 X48.2928 Y8.9124 I-6.0523 J1.2625
G3 X48.335 Y9.5013 I-6.7888 J0.782
G3 X48.3443 Y10.1579 I-23.2323 J0.6566
G3 X48.333 Y10.8798 I-23.2416 J0
G3 X48.2833 Y11.84 I-23.2304 J-0.7219
G1 Z-0.5 F36
G3 X48.2532 Y12.2137 I-23.1806 J-1.682 F36
G1 Z-0.76 F36
G3 X48.2494 Y12.2557 I-23.1505 J-2.0558 F36
G3 X48.2051 Y12.5099 I-1.5643 J-0.1418
G3 X48.1227 Y12.7413 I-1.3643 J-0.3554
G3 X48.0014 Y12.9549 I-1.2819 J-0.5868
G3 X47.838 Y13.1546 I-1.2931 J-0.8917
G3 X47.6441 Y13.3248 I-1.1296 J-1.0914
G3 X47.4348 Y13.4533 I-0.8399 J-1.1324
G3 X47.2063 Y13.5437 I-0.6306 J-1.2609
G3 X46.9539 Y13.5967 I-0.4481 J-1.5055
G3 X46.6961 Y13.6077 I-0.1956 J-1.5585
G3 X46.4524 Y13.5766 I0.0558 J-1.4087
G3 X46.2178 Y13.5037 I0.2995 J-1.3777
G3 X45.9879 Y13.3867 I0.595 J-1.4537
G3 X45.5959 Y13.0803 I1.1851 J-1.9203
G3 X45.2806 Y12.6955 I1.5771 J-1.6139
G3 X44.73 Y11.794 I15.9811 J-10.3789
G3 X44.2302 Y10.8633 I16.5317 J-9.4774
G2 X43.9408 Y10.3816 I-3.3144 J1.6632
G2 X43.5989 Y9.9727 I-2.7303 J1.936
G2 X43.1964 Y9.6234 I-2.3884 J2.3449
G2 X42.7201 Y9.3251 I-2.2003 J2.985
G2 X42.4881 Y9.2191 I-1.0829 J2.0624
G1 Z-0.5 F36
G2 X42.3527 Y9.1707 I-0.851 J2.1685 F36
G2 X42.1291 Y9.1124 I-0.6242 J1.934
G1 Z-0.76 F36
G2 X41.9908 Y9.0895 I-0.4007 J1.9924 F36
G2 X41.6202 Y9.0754 I-0.2624 J2.0153
G2 X41.2255 Y9.1306 I0.124 J2.3262
G2 X40.846 Y9.2522 I0.5187 J2.271
G2 X40.5183 Y9.4259 I0.7836 J1.8751
G2 X40.2276 Y9.6561 I1.1114 J1.7015
G2 X39.9637 Y9.9548 I1.6071 J1.6863
G1 X38.7444 Y11.5987
G3 X38.6411 Y11.7085 I-0.5195 J-0.3853
G3 X38.5152 Y11.7914 I-0.4162 J-0.4951
G3 X38.3736 Y11.8429 I-0.2903 J-0.578
G3 X38.2238 Y11.8602 I-0.1487 J-0.6295
G1 X34.7013 Y11.8543
G1 Z-0.5 F36
G1 X34.3271 Y11.8537 F36
G1 X34.3263 Y11.8537
G1 Z-0.76 F36
G3 X34.1646 Y11.8327 I0.0019 J-0.6468 F36
G3 X34.0125 Y11.7715 I0.1636 J-0.6258
G3 X33.8808 Y11.674 I0.3156 J-0.5646
G3 X33.7819 Y11.5533 I0.4474 J-0.4671
G1 X32.5108 Y9.9582
G2 X32.2134 Y9.6457 I-1.9238 J1.5331
G2 X31.8898 Y9.4106 I-1.4086 J1.5984
G2 X31.528 Y9.2401 I-1.0851 J1.8335
G2 X31.111 Y9.1298 I-0.8351 J2.3139
G2 X30.6811 Y9.0941 I-0.4181 J2.4242
G2 X30.2831 Y9.1335 I0.0102 J2.1305
G2 X29.8995 Y9.2467 I0.4082 J2.0911
G2 X29.5147 Y9.4415 I0.9143 J2.2838
G2 X29.0201 Y9.813 I1.8594 J2.99
G2 X28.5982 Y10.2654 I2.354 J2.6184
G2 X27.9846 Y11.0979 I14.8259 J11.5691
G2 X27.7965 Y11.3737 I15.4395 J10.7366
G1 Z-0.5 F36
G2 X27.591 Y11.6874 I15.6277 J10.4608 F36
G1 Z-0.76 F36
G2 X27.4178 Y11.9628 I15.8332 J10.1471 F36
G3 X26.9016 Y12.7349 I-10.7751 J-6.6453
G3 X26.3301 Y13.4671 I-10.2589 J-7.4174
G3 X26.1629 Y13.637 I-1.1675 J-0.9821
G3 X25.9788 Y13.7719 I-0.908 J-1.0459
G3 X25.7751 Y13.8748 I-0.724 J-1.1808
G3 X25.5479 Y13.9468 I-0.5731 J-1.4139
G3 X25.3122 Y13.9825 I-0.3458 J-1.4859
G3 X25.084 Y13.9802 I-0.1 J-1.3814
G3 X24.8593 Y13.9404 I0.1282 J-1.3791
G3 X24.6342 Y13.8619 I0.3887 J-1.4753
G3 X24.4241 Y13.7492 I0.6138 J-1.3967
G3 X24.2428 Y13.6105 I0.748 J-1.1657
G3 X24.0868 Y13.444 I0.9292 J-1.0271
G3 X23.9537 Y13.2462 I1.1954 J-0.9479
G3 X23.7972 Y12.9155 I2.2113 J-1.2486
G3 X23.6899 Y12.5656 I2.3678 J-0.9178
G3 X23.505 Y11.3915 I8.356 J-1.9176
G3 X23.4752 Y10.7055 I7.8801 J-0.686
G3 X23.4884 Y10.2492 I7.9099 J0
G3 X23.5422 Y9.6783 I7.8967 J0.4563
G1 Z-0.5 F36
G3 X23.5997 Y9.3077 I7.8429 J1.0273 F36
G1 Z-0.76 F36
G3 X23.6365 Y9.1165 I7.7854 J1.3978 F36
G3 X23.954 Y7.9753 I8.3984 J1.7223
G3 X24.2846 Y7.0723 I6.2177 J1.7642
G3 X24.7298 Y6.2647 I5.3587 J2.4278
G3 X25.2958 Y5.5367 I4.9135 J3.2354
G3 X25.9978 Y4.8736 I4.7762 J4.3543
G3 X26.7909 Y4.3226 I4.0742 J5.0173
G3 X27.6196 Y3.9182 I2.9867 J5.0685
G3 X28.5014 Y3.6482 I2.1579 J5.473
G3 X29.4571 Y3.5097 I1.402 J6.3093
G3 X36.0379 Y3.287 I6.446 J93.1285
G0 Z0.1
G0 X6.3995 Y10.4409
G1 Z-0.38 F36
G1 X6.3995 Y10.0659 F36
G1 X6.3995 Y4.9409
G3 X6.5245 Y4.8159 I0.125 J0
G1 X8.3474 Y4.8159
G3 X8.5442 Y4.8477 I0 J0.625
G3 X8.7209 Y4.9398 I-0.1968 J0.5932
G3 X8.8597 Y5.0829 I-0.3735 J0.5011
G3 X8.9463 Y5.2624 I-0.5123 J0.358
G2 X9.0132 Y5.4358 I1.1436 J-0.3409
G2 X9.101 Y5.5864 I0.9581 J-0.4577
G2 X9.2122 Y5.7206 I0.8703 J-0.6083
G2 X9.3196 Y5.8178 I0.8531 J-0.8344
G2 X9.3521 Y5.8429 I0.7457 J-0.9317
G2 X9.5094 Y5.9421 I0.7131 J-0.9568
G2 X9.6446 Y6.0016 I0.4947 J-0.9396
G2 X9.6697 Y6.0103 I0.3595 J-0.9992
G2 X9.8391 Y6.0515 I0.3343 J-1.0079
G2 X10.0245 Y6.0659 I0.1853 J-1.1788
G2 X10.2098 Y6.0515 I0 J-1.1933
G2 X10.3792 Y6.0103 I-0.1649 J-1.049
G2 X10.5395 Y5.9421 I-0.3343 J-1.0079
G2 X10.6968 Y5.8429 I-0.5559 J-1.0559
G2 X10.8367 Y5.7206 I-0.7131 J-0.9568
G2 X10.9479 Y5.5864 I-0.7591 J-0.7425
G2 X11.0357 Y5.4358 I-0.8703 J-0.6083
G2 X11.1026 Y5.2624 I-1.0768 J-0.5144
G3 X11.1892 Y5.0829 I0.5989 J0.1786
G3 X11.328 Y4.9398 I0.5123 J0.358
G3 X11.5047 Y4.8477 I0.3735 J0.5011
G3 X11.7015 Y4.8159 I0.1968 J0.5932
G1 X13.3474 Y4.8159
G3 X13.5442 Y4.8477 I0 J0.625
G3 X13.7209 Y4.9398 I-0.1968 J0.5932
G3 X13.8597 Y5.0829 I-0.3735 J0.5011
G3 X13.9463 Y5.2624 I-0.5123 J0.358
G2 X14.0132 Y5.4358 I1.1436 J-0.3409
G2 X14.101 Y5.5864 I0.9581 J-0.4577
G2 X14.2122 Y5.7206 I0.8703 J-0.6083
G2 X14.3521 Y5.8429 I0.8531 J-0.8344
G2 X14.5094 Y5.9421 I0.7131 J-0.9568
G2 X14.6697 Y6.0103 I0.4947 J-0.9396
G2 X14.8391 Y6.0515 I0.3343 J-1.0079
G2 X15.0245 Y6.0659 I0.1853 J-1.1788
G2 X15.2098 Y6.0515 I0 J-1.1933
G2 X15.3792 Y6.0103 I-0.1649 J-1.049
G2 X15.5395 Y5.9421 I-0.3343 J-1.0079
G2 X15.6968 Y5.8429 I-0.5559 J-1.0559
G2 X15.8367 Y5.7206 I-0.7131 J-0.9568
G2 X15.9479 Y5.5864 I-0.7591 J-0.7425
G2 X16.0357 Y5.4358 I-0.8703 J-0.6083
G2 X16.1026 Y5.2624 I-1.0768 J-0.5144
G3 X16.1892 Y5.0829 I0.5989 J0.1786
G3 X16.328 Y4.9398 I0.5123 J0.358
G3 X16.5047 Y4.8477 I0.3735 J0.5011
G3 X16.5657 Y4.8309 I0.1968 J0.5932
G3 X16.7015 Y4.8159 I0.1358 J0.6101
G1 X16.9396 Y4.8159
G1 X18.5245 Y4.8159
G3 X18.6495 Y4.9409 I0 J0.125
G1 X18.6495 Y10.4409
G3 X18.5245 Y10.5659 I-0.125 J0
G1 X17.377 Y10.5659
G1 X17.002 Y10.5659
G1 X16.7109 Y10.5659
G3 X16.5087 Y10.5323 I0 J-0.625
G3 X16.3282 Y10.435 I0.2022 J-0.5914
G3 X16.1889 Y10.2846 I0.3827 J-0.4941
G3 X16.1058 Y10.0972 I0.522 J-0.3437
G2 X16.0294 Y9.8761 I-1.4157 J0.3655
G2 X15.9248 Y9.6836 I-1.1861 J0.5195
G2 X15.7894 Y9.5115 I-1.0815 J0.712
G2 X15.6165 Y9.3539 I-1.0683 J0.9983
G2 X15.4207 Y9.2259 I-0.8954 J1.1559
G2 X15.2201 Y9.1377 I-0.6195 J1.137
G2 X15.0076 Y9.0846 I-0.419 J1.2252
G2 X14.7745 Y9.0659 I-0.2332 J1.4434
G2 X14.5413 Y9.0846 I0 J1.4621
G2 X14.3288 Y9.1377 I0.2065 J1.2783
G2 X14.1282 Y9.2259 I0.419 J1.2252
G2 X13.9324 Y9.3539 I0.6996 J1.2839
G2 X13.7595 Y9.5115 I0.8954 J1.1559
G2 X13.6241 Y9.6836 I0.946 J0.8841
G2 X13.5195 Y9.8761 I1.0815 J0.712
G2 X13.4431 Y10.0972 I1.3393 J0.5866
G3 X13.36 Y10.2846 I-0.6052 J-0.1563
G3 X13.2207 Y10.435 I-0.522 J-0.3437
G3 X13.0402 Y10.5323 I-0.3827 J-0.4941
G3 X12.838 Y10.5659 I-0.2022 J-0.5914
G1 X12.2109 Y10.5659
G3 X12.0087 Y10.5323 I0 J-0.625
G3 X11.8282 Y10.435 I0.2022 J-0.5914
G3 X11.6889 Y10.2846 I0.3827 J-0.4941
G3 X11.6058 Y10.0972 I0.522 J-0.3437
G2 X11.5294 Y9.8761 I-1.4157 J0.3655
G2 X11.4248 Y9.6836 I-1.1861 J0.5195
G2 X11.2894 Y9.5115 I-1.0815 J0.712
G2 X11.1165 Y9.3539 I-1.0683 J0.9983
G2 X10.9207 Y9.2259 I-0.8954 J1.1559
G2 X10.7201 Y9.1377 I-0.6195 J1.137
G2 X10.5076 Y9.0846 I-0.419 J1.2252
G2 X10.2745 Y9.0659 I-0.2332 J1.4434
G2 X10.0413 Y9.0846 I0 J1.4621
G2 X9.8288 Y9.1377 I0.2065 J1.2783
G2 X9.6282 Y9.2259 I0.419 J1.2252
G2 X9.4324 Y9.3539 I0.6996 J1.2839
G2 X9.2595 Y9.5115 I0.8954 J1.1559
G2 X9.1241 Y9.6836 I0.946 J0.8841
G2 X9.0195 Y9.8761 I1.0815 J0.712
G2 X8.9431 Y10.0972 I1.3393 J0.5866
G3 X8.86 Y10.2846 I-0.6052 J-0.1563
G3 X8.7207 Y10.435 I-0.522 J-0.3437
G3 X8.5402 Y10.5323 I-0.3827 J-0.4941
G3 X8.338 Y10.5659 I-0.2022 J-0.5914
G1 X6.5245 Y10.5659
G3 X6.3995 Y10.4409 I0 J-0.125
G1 Z-0.76 F36
G1 Z-0.5 F36
G1 X6.3995 Y10.0659 F36
G1 Z-0.76 F36
G1 X6.3995 Y4.9409 F36
G3 X6.5245 Y4.8159 I0.125 J0
G1 X8.3474 Y4.8159
G3 X8.5442 Y4.8477 I0 J0.625
G3 X8.7209 Y4.9398 I-0.1968 J0.5932
G3 X8.8597 Y5.0829 I-0.3735 J0.5011
G3 X8.9463 Y5.2624 I-0.5123 J0.358
G2 X9.0132 Y5.4358 I1.1436 J-0.3409
G2 X9.101 Y5.5864 I0.9581 J-0.4577
G2 X9.2122 Y5.7206 I0.8703 J-0.6083
G2 X9.3196 Y5.8178 I0.8531 J-0.8344
G1 Z-0.5 F36
G2 X9.3521 Y5.8429 I0.7457 J-0.9317 F36
G2 X9.5094 Y5.9421 I0.7131 J-0.9568
G2 X9.6446 Y6.0016 I0.4947 J-0.9396
G1 Z-0.76 F36
G2 X9.6697 Y6.0103 I0.3595 J-0.9992 F36
G2 X9.8391 Y6.0515 I0.3343 J-1.0079
G2 X10.0245 Y6.0659 I0.1853 J-1.1788
G2 X10.2098 Y6.0515 I0 J-1.1933
G2 X10.3792 Y6.0103 I-0.1649 J-1.049
G2 X10.5395 Y5.9421 I-0.3343 J-1.0079
G2 X10.6968 Y5.8429 I-0.5559 J-1.0559
G2 X10.8367 Y5.7206 I-0.7131 J-0.9568
G2 X10.9479 Y5.5864 I-0.7591 J-0.7425
G2 X11.0357 Y5.4358 I-0.8703 J-0.6083
G2 X11.1026 Y5.2624 I-1.0768 J-0.5144
G3 X11.1892 Y5.0829 I0.5989 J0.1786
G3 X11.328 Y4.9398 I0.5123 J0.358
G3 X11.5047 Y4.8477 I0.3735 J0.5011
G3 X11.7015 Y4.8159 I0.1968 J0.5932
G1 X13.3474 Y4.8159
G3 X13.5442 Y4.8477 I0 J0.625
G3 X13.7209 Y4.9398 I-0.1968 J0.5932
G3 X13.8597 Y5.0829 I-0.3735 J0.5011
G3 X13.9463 Y5.2624 I-0.5123 J0.358
G2 X14.0132 Y5.4358 I1.1436 J-0.3409
G2 X14.101 Y5.5864 I0.9581 J-0.4577
G2 X14.2122 Y5.7206 I0.8703 J-0.6083
G2 X14.3521 Y5.8429 I0.8531 J-0.8344
G2 X14.5094 Y5.9421 I0.7131 J-0.9568
G2 X14.6697 Y6.0103 I0.4947 J-0.9396
G2 X14.8391 Y6.0515 I0.3343 J-1.0079
G2 X15.0245 Y6.0659 I0.1853 J-1.1788
G2 X15.2098 Y6.0515 I0 J-1.1933
G2 X15.3792 Y6.0103 I-0.1649 J-1.049
G2 X15.5395 Y5.9421 I-0.3343 J-1.0079
G2 X15.6968 Y5.8429 I-0.5559 J-1.0559
G2 X15.8367 Y5.7206 I-0.7131 J-0.9568
G2 X15.9479 Y5.5864 I-0.7591 J-0.7425
G2 X16.0357 Y5.4358 I-0.8703 J-0.6083
G2 X16.1026 Y5.2624 I-1.0768 J-0.5144
G3 X16.1892 Y5.0829 I0.5989 J0.1786
G3 X16.328 Y4.9398 I0.5123 J0.358
G3 X16.5047 Y4.8477 I0.3735 J0.5011
G3 X16.5657 Y4.8309 I0.1968 J0.5932
G1 Z-0.5 F36
G3 X16.7015 Y4.8159 I0.1358 J0.6101 F36
G1 X16.9396 Y4.8159
G1 Z-0.76 F36
G1 X18.5245 Y4.8159 F36
G3 X18.6495 Y4.9409 I0 J0.125
G1 X18.6495 Y10.4409
G3 X18.5245 Y10.5659 I-0.125 J0
G1 X17.377 Y10.5659
G1 Z-0.5 F36
G1 X17.002 Y10.5659 F36
G1 Z-0.76 F36
G1 X16.7109 Y10.5659 F36
G3 X16.5087 Y10.5323 I0 J-0.625
G3 X16.3282 Y10.435 I0.2022 J-0.5914
G3 X16.1889 Y10.2846 I0.3827 J-0.4941
G3 X16.1058 Y10.0972 I0.522 J-0.3437
G2 X16.0294 Y9.8761 I-1.4157 J0.3655
G2 X15.9248 Y9.6836 I-1.1861 J0.5195
G2 X15.7894 Y9.5115 I-1.0815 J0.712
G2 X15.6165 Y9.3539 I-1.0683 J0.9983
G2 X15.4207 Y9.2259 I-0.8954 J1.1559
G2 X15.2201 Y9.1377 I-0.6195 J1.137
G2 X15.0076 Y9.0846 I-0.419 J1.2252
G2 X14.7745 Y9.0659 I-0.2332 J1.4434
G2 X14.5413 Y9.0846 I0 J1.4621
G2 X14.3288 Y9.1377 I0.2065 J1.2783
G2 X14.1282 Y9.2259 I0.419 J1.2252
G2 X13.9324 Y9.3539 I0.6996 J1.2839
G2 X13.7595 Y9.5115 I0.8954 J1.1559
G2 X13.6241 Y9.6836 I0.946 J0.8841
G2 X13.5195 Y9.8761 I1.0815 J0.712
G2 X13.4431 Y10.0972 I1.3393 J0.5866
G3 X13.36 Y10.2846 I-0.6052 J-0.1563
G3 X13.2207 Y10.435 I-0.522 J-0.3437
G3 X13.0402 Y10.5323 I-0.3827 J-0.4941
G3 X12.838 Y10.5659 I-0.2022 J-0.5914
G1 X12.2109 Y10.5659
G3 X12.0087 Y10.5323 I0 J-0.625
G3 X11.8282 Y10.435 I0.2022 J-0.5914
G3 X11.6889 Y10.2846 I0.3827 J-0.4941
G3 X11.6058 Y10.0972 I0.522 J-0.3437
G2 X11.5294 Y9.8761 I-1.4157 J0.3655
G2 X11.4248 Y9.6836 I-1.1861 J0.5195
G2 X11.2894 Y9.5115 I-1.0815 J0.712
G2 X11.1165 Y9.3539 I-1.0683 J0.9983
G2 X10.9207 Y9.2259 I-0.8954 J1.1559
G2 X10.7201 Y9.1377 I-0.6195 J1.137
G2 X10.5076 Y9.0846 I-0.419 J1.2252
G2 X10.2745 Y9.0659 I-0.2332 J1.4434
G2 X10.0413 Y9.0846 I0 J1.4621
G2 X9.8288 Y9.1377 I0.2065 J1.2783
G2 X9.6282 Y9.2259 I0.419 J1.2252
G2 X9.4324 Y9.3539 I0.6996 J1.2839
G2 X9.2595 Y9.5115 I0.8954 J1.1559
G2 X9.1241 Y9.6836 I0.946 J0.8841
G2 X9.0195 Y9.8761 I1.0815 J0.712
G2 X8.9431 Y10.0972 I1.3393 J0.5866
G3 X8.86 Y10.2846 I-0.6052 J-0.1563
G3 X8.7207 Y10.435 I-0.522 J-0.3437
G3 X8.5402 Y10.5323 I-0.3827 J-0.4941
G3 X8.338 Y10.5659 I-0.2022 J-0.5914
G1 X6.5245 Y10.5659
G3 X6.3995 Y10.4409 I0 J-0.125
G0 Z0.1
G0 X17.6003 Y36.4211
G1 Z-0.38 F36
G1 X17.2253 Y36.4211 F36
G1 X12.6003 Y36.4211
G3 X12.4753 Y36.2961 I0 J-0.125
G1 X12.4753 Y35.2103
G3 X12.5586 Y35.0925 I0.125 J0
G2 X12.7755 Y34.9954 I-0.4883 J-1.3811
G2 X12.9602 Y34.8722 I-0.6222 J-1.1329
G2 X13.1211 Y34.7192 I-0.8069 J-1.0097
G2 X13.2636 Y34.5291 I-1.0968 J-0.971
G2 X13.3736 Y34.3185 I-1.2394 J-0.7809
G2 X13.4421 Y34.1073 I-1.1906 J-0.5032
G2 X13.4735 Y33.8875 I-1.2591 J-0.292
G2 X13.4758 Y33.8057 I-1.4626 J-0.0818
G2 X13.4675 Y33.65 I-1.4649 J0
G2 X13.4232 Y33.4166 I-1.4566 J0.1557
G2 X13.3461 Y33.2084 I-1.2461 J0.3433
G2 X13.2344 Y33.0165 I-1.169 J0.5515
G2 X13.2104 Y32.9833 I-1.1983 J0.8426
G2 X13.0825 Y32.8338 I-1.1743 J0.8757
G3 X12.9629 Y32.7019 I1.6358 J-1.6027
G3 X12.814 Y32.5032 I1.7553 J-1.4708
G3 X12.6274 Y32.1521 I1.6448 J-1.0988
G3 X12.5149 Y31.7707 I1.8313 J-0.7476
G3 X12.4753 Y31.3466 I2.2505 J-0.424
G1 X12.4753 Y30.2961
G3 X12.5256 Y29.7645 I2.8374 J0
G3 X12.6679 Y29.2886 I2.3934 J0.4565
G3 X12.9038 Y28.8514 I2.2511 J0.9324
G3 X13.2442 Y28.44 I2.3467 J1.5949
G3 X13.6556 Y28.0996 I2.0064 J2.0064
G3 X14.0928 Y27.8637 I1.3696 J2.0152
G3 X14.5687 Y27.7214 I0.9324 J2.2511
G3 X15.1003 Y27.6711 I0.5316 J2.7872
G3 X15.6319 Y27.7214 I0 J2.8374
G3 X16.1079 Y27.8637 I-0.4565 J2.3934
G3 X16.545 Y28.0996 I-0.9324 J2.2511
G3 X16.8908 Y28.3764 I-1.5949 J2.3467
G3 X16.9565 Y28.44 I-1.9407 J2.0699
G3 X17.1466 Y28.6502 I-2.0064 J2.0064
G3 X17.2969 Y28.8514 I-2.1965 J1.7962
G3 X17.5327 Y29.2886 I-2.0152 J1.3696
G3 X17.6751 Y29.7645 I-2.2511 J0.9324
G3 X17.7253 Y30.2961 I-2.7872 J0.5316
G1 X17.7253 Y31.3466
G1 X17.7253 Y31.3466
G3 X17.6857 Y31.7707 I-2.2901 J0
G3 X17.5732 Y32.1521 I-1.9439 J-0.3663
G3 X17.3866 Y32.5032 I-1.8313 J-0.7476
G3 X17.1182 Y32.8338 I-1.9043 J-1.2721
G2 X16.9662 Y33.0165 I1.0463 J1.0252
G2 X16.8546 Y33.2084 I1.0573 J0.7434
G2 X16.7774 Y33.4166 I1.169 J0.5515
G2 X16.7331 Y33.65 I1.4123 J0.3891
G2 X16.7248 Y33.8057 I1.4566 J0.1557
G2 X16.7271 Y33.8875 I1.4649 J0
G2 X16.7585 Y34.1073 I1.2905 J-0.0722
G2 X16.827 Y34.3185 I1.2591 J-0.292
G2 X16.937 Y34.5291 I1.3493 J-0.5703
G2 X17.0795 Y34.7192 I1.2394 J-0.7809
G2 X17.2404 Y34.8722 I0.9678 J-0.8567
G2 X17.4251 Y34.9954 I0.8069 J-1.0097
G2 X17.642 Y35.0925 I0.7051 J-1.284
G3 X17.7253 Y35.2103 I-0.0417 J0.1179
G1 X17.7253 Y36.2961
G3 X17.6003 Y36.4211 I-0.125 J0
G1 Z-0.76 F36
G1 Z-0.5 F36
G1 X17.2253 Y36.4211 F36
G1 Z-0.76 F36
G1 X12.6003 Y36.4211 F36
G3 X12.4753 Y36.2961 I0 J-0.125
G1 X12.4753 Y35.2103
G3 X12.5586 Y35.0925 I0.125 J0
G2 X12.7755 Y34.9954 I-0.4883 J-1.3811
G2 X12.9602 Y34.8722 I-0.6222 J-1.1329
G2 X13.1211 Y34.7192 I-0.8069 J-1.0097
G2 X13.2636 Y34.5291 I-1.0968 J-0.971
G2 X13.3736 Y34.3185 I-1.2394 J-0.7809
G2 X13.4421 Y34.1073 I-1.1906 J-0.5032
G2 X13.4735 Y33.8875 I-1.2591 J-0.292
G2 X13.4758 Y33.8057 I-1.4626 J-0.0818
G2 X13.4675 Y33.65 I-1.4649 J0
G2 X13.4232 Y33.4166 I-1.4566 J0.1557
G2 X13.3461 Y33.2084 I-1.2461 J0.3433
G2 X13.2344 Y33.0165 I-1.169 J0.5515
G2 X13.2104 Y32.9833 I-1.1983 J0.8426
G1 Z-0.5 F36
G2 X13.0825 Y32.8338 I-1.1743 J0.8757 F36
G3 X12.9629 Y32.7019 I1.6358 J-1.6027
G1 Z-0.76 F36
G3 X12.814 Y32.5032 I1.7553 J-1.4708 F36
G3 X12.6274 Y32.1521 I1.6448 J-1.0988
G3 X12.5149 Y31.7707 I1.8313 J-0.7476
G3 X12.4753 Y31.3466 I2.2505 J-0.424
G1 X12.4753 Y30.2961
G3 X12.5256 Y29.7645 I2.8374 J0
G3 X12.6679 Y29.2886 I2.3934 J0.4565
G3 X12.9038 Y28.8514 I2.2511 J0.9324
G3 X13.2442 Y28.44 I2.3467 J1.5949
G3 X13.6556 Y28.0996 I2.0064 J2.0064
G3 X14.0928 Y27.8637 I1.3696 J2.0152
G3 X14.5687 Y27.7214 I0.9324 J2.2511
G3 X15.1003 Y27.6711 I0.5316 J2.7872
G3 X15.6319 Y27.7214 I0 J2.8374
G3 X16.1079 Y27.8637 I-0.4565 J2.3934
G3 X16.545 Y28.0996 I-0.9324 J2.2511
G3 X16.8908 Y28.3764 I-1.5949 J2.3467
G1 Z-0.5 F36
G3 X16.9565 Y28.44 I-1.9407 J2.0699 F36
G3 X17.1466 Y28.6502 I-2.0064 J2.0064
G1 Z-0.76 F36
G3 X17.2969 Y28.8514 I-2.1965 J1.7962 F36
G3 X17.5327 Y29.2886 I-2.0152 J1.3696
G3 X17.6751 Y29.7645 I-2.2511 J0.9324
G3 X17.7253 Y30.2961 I-2.7872 J0.5316
G1 X17.7253 Y31.3466
G1 X17.7253 Y31.3466
G3 X17.6857 Y31.7707 I-2.2901 J0
G3 X17.5732 Y32.1521 I-1.9439 J-0.3663
G3 X17.3866 Y32.5032 I-1.8313 J-0.7476
G3 X17.1182 Y32.8338 I-1.9043 J-1.2721
G2 X16.9662 Y33.0165 I1.0463 J1.0252
G2 X16.8546 Y33.2084 I1.0573 J0.7434
G2 X16.7774 Y33.4166 I1.169 J0.5515
G2 X16.7331 Y33.65 I1.4123 J0.3891
G2 X16.7248 Y33.8057 I1.4566 J0.1557
G2 X16.7271 Y33.8875 I1.4649 J0
G2 X16.7585 Y34.1073 I1.2905 J-0.0722
G2 X16.827 Y34.3185 I1.2591 J-0.292
G2 X16.937 Y34.5291 I1.3493 J-0.5703
G2 X17.0795 Y34.7192 I1.2394 J-0.7809
G2 X17.2404 Y34.8722 I0.9678 J-0.8567
G2 X17.4251 Y34.9954 I0.8069 J-1.0097
G2 X17.642 Y35.0925 I0.7051 J-1.284
G3 X17.7253 Y35.2103 I-0.0417 J0.1179
G1 X17.7253 Y36.2961
G3 X17.6003 Y36.4211 I-0.125 J0
G0 Z0.1
G0 X10.6628 Y36.4599
G1 Z-0.38 F36
G1 X10.2878 Y36.4599 F36
G1 X5.6628 Y36.4599
G3 X5.5378 Y36.3349 I0 J-0.125
G1 X5.5378 Y35.2492
G3 X5.6212 Y35.1313 I0.125 J0
G2 X5.838 Y35.0342 I-0.4883 J-1.3811
G2 X6.0227 Y34.911 I-0.6222 J-1.1329
G2 X6.1836 Y34.758 I-0.8069 J-1.0097
G2 X6.3262 Y34.5679 I-1.0968 J-0.971
G2 X6.4361 Y34.3573 I-1.2394 J-0.7809
G2 X6.5047 Y34.1461 I-1.1906 J-0.5032
G2 X6.5361 Y33.9263 I-1.2591 J-0.292
G2 X6.5384 Y33.8445 I-1.4626 J-0.0818
G2 X6.5301 Y33.6888 I-1.4649 J0
G2 X6.4857 Y33.4554 I-1.4566 J0.1557
G2 X6.4086 Y33.2472 I-1.2461 J0.3433
G2 X6.297 Y33.0553 I-1.169 J0.5515
G2 X6.273 Y33.0221 I-1.1983 J0.8426
G2 X6.145 Y32.8726 I-1.1743 J0.8757
G3 X6.0254 Y32.7407 I1.6358 J-1.6027
G3 X5.8765 Y32.542 I1.7553 J-1.4708
G3 X5.69 Y32.1909 I1.6448 J-1.0988
G3 X5.5774 Y31.8095 I1.8313 J-0.7476
G3 X5.5378 Y31.3854 I2.2505 J-0.424
G1 X5.5378 Y30.3349
G3 X5.5881 Y29.8033 I2.8374 J0
G3 X5.7304 Y29.3274 I2.3934 J0.4565
G3 X5.9663 Y28.8902 I2.2511 J0.9324
G3 X6.3067 Y28.4788 I2.3467 J1.5949
G3 X6.7181 Y28.1384 I2.0064 J2.0064
G3 X7.1553 Y27.9025 I1.3696 J2.0152
G3 X7.6312 Y27.7602 I0.9324 J2.2511
G3 X8.1628 Y27.7099 I0.5316 J2.7872
G3 X8.6945 Y27.7602 I0 J2.8374
G3 X9.1704 Y27.9025 I-0.4565 J2.3934
G3 X9.6075 Y28.1384 I-0.9324 J2.2511
G3 X9.9533 Y28.4152 I-1.5949 J2.3467
G3 X10.019 Y28.4788 I-1.9407 J2.0699
G3 X10.2092 Y28.689 I-2.0064 J2.0064
G3 X10.3594 Y28.8902 I-2.1965 J1.7962
G3 X10.5953 Y29.3274 I-2.0152 J1.3696
G3 X10.7376 Y29.8033 I-2.2511 J0.9324
G3 X10.7878 Y30.3349 I-2.7872 J0.5316
G1 X10.7878 Y31.3854
G3 X10.7482 Y31.8095 I-2.2901 J0
G3 X10.6357 Y32.1909 I-1.9439 J-0.3663
G3 X10.4492 Y32.542 I-1.8313 J-0.7476
G3 X10.1807 Y32.8726 I-1.9043 J-1.2721
G2 X10.0287 Y33.0553 I1.0463 J1.0252
G2 X9.9171 Y33.2472 I1.0573 J0.7434
G2 X9.84 Y33.4554 I1.169 J0.5515
G2 X9.7956 Y33.6888 I1.4123 J0.3891
G2 X9.7873 Y33.8445 I1.4566 J0.1557
G2 X9.7896 Y33.9263 I1.4649 J0
G2 X9.821 Y34.1461 I1.2905 J-0.0722
G2 X9.8896 Y34.3573 I1.2591 J-0.292
G2 X9.9995 Y34.5679 I1.3493 J-0.5703
G2 X10.1421 Y34.758 I1.2394 J-0.7809
G2 X10.303 Y34.911 I0.9678 J-0.8567
G2 X10.4877 Y35.0342 I0.8069 J-1.0097
G2 X10.7045 Y35.1313 I0.7051 J-1.284
G3 X10.7878 Y35.2492 I-0.0417 J0.1179
G1 X10.7878 Y36.3349
G3 X10.6628 Y36.4599 I-0.125 J0
G1 Z-0.76 F36
G1 Z-0.5 F36
G1 X10.2878 Y36.4599 F36
G1 Z-0.76 F36
G1 X5.6628 Y36.4599 F36
G3 X5.5378 Y36.3349 I0 J-0.125
G1 X5.5378 Y35.2492
G3 X5.6212 Y35.1313 I0.125 J0
G2 X5.838 Y35.0342 I-0.4883 J-1.3811
G2 X6.0227 Y34.911 I-0.6222 J-1.1329
G2 X6.1836 Y34.758 I-0.8069 J-1.0097
G2 X6.3262 Y34.5679 I-1.0968 J-0.971
G2 X6.4361 Y34.3573 I-1.2394 J-0.7809
G2 X6.5047 Y34.1461 I-1.1906 J-0.5032
G2 X6.5361 Y33.9263 I-1.2591 J-0.292
G2 X6.5384 Y33.8445 I-1.4626 J-0.0818
G2 X6.5301 Y33.6888 I-1.4649 J0
G2 X6.4857 Y33.4554 I-1.4566 J0.1557
G2 X6.4086 Y33.2472 I-1.2461 J0.3433
G2 X6.297 Y33.0553 I-1.169 J0.5515
G2 X6.273 Y33.0221 I-1.1983 J0.8426
G1 Z-0.5 F36
G2 X6.145 Y32.8726 I-1.1743 J0.8757 F36
G3 X6.0254 Y32.7407 I1.6358 J-1.6027
G1 Z-0.76 F36
G3 X5.8765 Y32.542 I1.7553 J-1.4708 F36
G3 X5.69 Y32.1909 I1.6448 J-1.0988
G3 X5.5774 Y31.8095 I1.8313 J-0.7476
G3 X5.5378 Y31.3854 I2.2505 J-0.424
G1 X5.5378 Y30.3349
G3 X5.5881 Y29.8033 I2.8374 J0
G3 X5.7304 Y29.3274 I2.3934 J0.4565
G3 X5.9663 Y28.8902 I2.2511 J0.9324
G3 X6.3067 Y28.4788 I2.3467 J1.5949
G3 X6.7181 Y28.1384 I2.0064 J2.0064
G3 X7.1553 Y27.9025 I1.3696 J2.0152
G3 X7.6312 Y27.7602 I0.9324 J2.2511
G3 X8.1628 Y27.7099 I0.5316 J2.7872
G3 X8.6945 Y27.7602 I0 J2.8374
G3 X9.1704 Y27.9025 I-0.4565 J2.3934
G3 X9.6075 Y28.1384 I-0.9324 J2.2511
G3 X9.9533 Y28.4152 I-1.5949 J2.3467
G1 Z-0.5 F36
G3 X10.019 Y28.4788 I-1.9407 J2.0699 F36
G3 X10.2092 Y28.689 I-2.0064 J2.0064
G1 Z-0.76 F36
G3 X10.3594 Y28.8902 I-2.1965 J1.7962 F36
G3 X10.5953 Y29.3274 I-2.0152 J1.3696
G3 X10.7376 Y29.8033 I-2.2511 J0.9324
G3 X10.7878 Y30.3349 I-2.7872 J0.5316
G1 X10.7878 Y31.3854
G3 X10.7482 Y31.8095 I-2.2901 J0
G3 X10.6357 Y32.1909 I-1.9439 J-0.3663
G3 X10.4492 Y32.542 I-1.8313 J-0.7476
G3 X10.1807 Y32.8726 I-1.9043 J-1.2721
G2 X10.0287 Y33.0553 I1.0463 J1.0252
G2 X9.9171 Y33.2472 I1.0573 J0.7434
G2 X9.84 Y33.4554 I1.169 J0.5515
G2 X9.7956 Y33.6888 I1.4123 J0.3891
G2 X9.7873 Y33.8445 I1.4566 J0.1557
G2 X9.7896 Y33.9263 I1.4649 J0
G2 X9.821 Y34.1461 I1.2905 J-0.0722
G2 X9.8896 Y34.3573 I1.2591 J-0.292
G2 X9.9995 Y34.5679 I1.3493 J-0.5703
G2 X10.1421 Y34.758 I1.2394 J-0.7809
G2 X10.303 Y34.911 I0.9678 J-0.8567
G2 X10.4877 Y35.0342 I0.8069 J-1.0097
G2 X10.7045 Y35.1313 I0.7051 J-1.284
G3 X10.7878 Y35.2492 I-0.0417 J0.1179
G1 X10.7878 Y36.3349
G3 X10.6628 Y36.4599 I-0.125 J0
G0 Z0.1
G0 X32.5231 Y22.6845
G1 Z-0.38 F36
G1 X32.5231 Y22.3095 F36
G1 X32.5231 Y17.8095
G1 X32.0231 Y17.8095
G1 X32.0231 Y21.4345
G1 X32.0231 Y21.8095
G1 X32.0231 Y22.6845
G3 X31.8981 Y22.8095 I-0.125 J0
G1 X31.3981 Y22.8095
G3 X31.1158 Y22.7861 I0 J-1.7183
G3 X30.8549 Y22.7188 I0.253 J-1.5187
G3 X30.6098 Y22.607 I0.5138 J-1.4514
G3 X30.3757 Y22.4475 I0.847 J-1.4951
G3 X30.1709 Y22.2518 I1.0811 J-1.3356
G3 X30.0105 Y22.0353 I1.1522 J-1.0213
G3 X29.8904 Y21.7942 I1.3125 J-0.8048
G3 X29.8087 Y21.5229 I1.599 J-0.6292
G2 X29.583 Y20.8354 I-3.301 J0.7029
G2 X29.2159 Y20.2118 I-3.0753 J1.3904
G2 X28.7243 Y19.6808 I-2.7082 J2.014
G2 X28.1309 Y19.2668 I-2.2166 J2.545
G3 X27.7656 Y19.023 I1.2179 J-2.2203
G3 X27.4681 Y18.7356 I1.3957 J-1.7425
G3 X27.2287 Y18.3981 I1.6933 J-1.4551
G3 X27.0426 Y18.0004 I2.1922 J-1.2677
G3 X26.973 Y17.779 I2.3782 J-0.8699
G3 X26.9281 Y17.5765 I2.4479 J-0.6485
G3 X26.9048 Y17.4106 I2.1977 J-0.3932
G3 X26.8932 Y17.1832 I2.221 J-0.2273
G3 X26.8933 Y17.1642 I2.2326 J0
G3 X26.9351 Y16.7526 I2.2325 J0.0191
G3 X27.0569 Y16.3307 I2.4848 J0.4885
G3 X27.2497 Y15.9361 I2.363 J0.9104
G3 X27.4948 Y15.6028 I1.9134 J1.1505
G3 X27.7972 Y15.3205 I1.6682 J1.4838
G3 X28.1666 Y15.083 I1.5492 J2.0032
G3 X28.5714 Y14.9129 I1.1798 J2.2407
G3 X28.9753 Y14.8233 I0.6833 J2.1255
G3 X29.3888 Y14.8098 I0.2793 J2.215
G3 X29.8232 Y14.8741 I-0.1522 J2.5278
G2 X31.0399 Y15.0906 I2.4849 J-10.4356
G2 X32.2731 Y15.1658 I1.2681 J-10.6522
G2 X33.5062 Y15.0906 I-0.035 J-10.7273
G2 X33.9019 Y15.036 I-1.2681 J-10.6522
G2 X34.2713 Y14.9714 I-1.6638 J-10.5976
G2 X34.7229 Y14.8741 I-2.0332 J-10.5329
G3 X35.1573 Y14.8098 I0.5866 J2.4635
G3 X35.5708 Y14.8233 I0.1342 J2.2286
G3 X35.9748 Y14.9129 I-0.2793 J2.215
G3 X36.3796 Y15.083 I-0.775 J2.4108
G3 X36.7489 Y15.3205 I-1.1798 J2.2407
G3 X37.0514 Y15.6028 I-1.3658 J1.7661
G3 X37.2965 Y15.9361 I-1.6682 J1.4838
G3 X37.4893 Y16.3307 I-2.1702 J1.3049
G3 X37.611 Y16.7526 I-2.363 J0.9104
G3 X37.6529 Y17.1642 I-2.1907 J0.4307
G3 X37.653 Y17.1832 I-2.2325 J0.0191
G3 X37.6181 Y17.5765 I-2.2326 J0
G3 X37.5035 Y18.0004 I-2.4928 J-0.446
G3 X37.3175 Y18.3981 I-2.3782 J-0.8699
G3 X37.0781 Y18.7356 I-1.9327 J-1.1176
G3 X36.7805 Y19.023 I-1.6933 J-1.4551
G3 X36.4153 Y19.2668 I-1.5831 J-1.9765
G2 X35.8218 Y19.6808 I1.6231 J2.9591
G2 X35.3302 Y20.2118 I2.2166 J2.545
G2 X34.9632 Y20.8354 I2.7082 J2.014
G2 X34.7374 Y21.5229 I3.0753 J1.3904
G3 X34.6558 Y21.7942 I-1.6806 J-0.3579
G3 X34.5356 Y22.0353 I-1.4327 J-0.5637
G3 X34.3752 Y22.2518 I-1.3125 J-0.8048
G3 X34.1705 Y22.4475 I-1.2859 J-1.1398
G3 X33.9364 Y22.607 I-1.0811 J-1.3356
G3 X33.6913 Y22.7188 I-0.7589 J-1.3396
G3 X33.4304 Y22.7861 I-0.5138 J-1.4514
G3 X33.1481 Y22.8095 I-0.2823 J-1.695
G1 X32.6481 Y22.8095
G3 X32.5231 Y22.6845 I0 J-0.125
G1 Z-0.76 F36
G1 Z-0.5 F36
G1 X32.5231 Y22.3095 F36
G1 Z-0.76 F36
G1 X32.5231 Y17.8095 F36
G1 X32.0231 Y17.8095
G1 X32.0231 Y21.4345
G1 Z-0.5 F36
G1 X32.0231 Y21.8095 F36
G1 Z-0.76 F36
G1 X32.0231 Y22.6845 F36
G3 X31.8981 Y22.8095 I-0.125 J0
G1 X31.3981 Y22.8095
G3 X31.1158 Y22.7861 I0 J-1.7183
G3 X30.8549 Y22.7188 I0.253 J-1.5187
G3 X30.6098 Y22.607 I0.5138 J-1.4514
G3 X30.3757 Y22.4475 I0.847 J-1.4951
G3 X30.1709 Y22.2518 I1.0811 J-1.3356
G3 X30.0105 Y22.0353 I1.1522 J-1.0213
G3 X29.8904 Y21.7942 I1.3125 J-0.8048
G3 X29.8087 Y21.5229 I1.599 J-0.6292
G2 X29.583 Y20.8354 I-3.301 J0.7029
G2 X29.2159 Y20.2118 I-3.0753 J1.3904
G2 X28.7243 Y19.6808 I-2.7082 J2.014
G2 X28.1309 Y19.2668 I-2.2166 J2.545
G3 X27.7656 Y19.023 I1.2179 J-2.2203
G3 X27.4681 Y18.7356 I1.3957 J-1.7425
G3 X27.2287 Y18.3981 I1.6933 J-1.4551
G3 X27.0426 Y18.0004 I2.1922 J-1.2677
G3 X26.973 Y17.779 I2.3782 J-0.8699
G1 Z-0.5 F36
G3 X26.9281 Y17.5765 I2.4479 J-0.6485 F36
G3 X26.9048 Y17.4106 I2.1977 J-0.3932
G1 Z-0.76 F36
G3 X26.8932 Y17.1832 I2.221 J-0.2273 F36
G3 X26.8933 Y17.1642 I2.2326 J0
G3 X26.9351 Y16.7526 I2.2325 J0.0191
G3 X27.0569 Y16.3307 I2.4848 J0.4885
G3 X27.2497 Y15.9361 I2.363 J0.9104
G3 X27.4948 Y15.6028 I1.9134 J1.1505
G3 X27.7972 Y15.3205 I1.6682 J1.4838
G3 X28.1666 Y15.083 I1.5492 J2.0032
G3 X28.5714 Y14.9129 I1.1798 J2.2407
G3 X28.9753 Y14.8233 I0.6833 J2.1255
G3 X29.3888 Y14.8098 I0.2793 J2.215
G3 X29.8232 Y14.8741 I-0.1522 J2.5278
G2 X31.0399 Y15.0906 I2.4849 J-10.4356
G2 X32.2731 Y15.1658 I1.2681 J-10.6522
G2 X33.5062 Y15.0906 I-0.035 J-10.7273
G2 X33.9019 Y15.036 I-1.2681 J-10.6522
G1 Z-0.5 F36
G2 X34.2713 Y14.9714 I-1.6638 J-10.5976 F36
G1 Z-0.76 F36
G2 X34.7229 Y14.8741 I-2.0332 J-10.5329 F36
G3 X35.1573 Y14.8098 I0.5866 J2.4635
G3 X35.5708 Y14.8233 I0.1342 J2.2286
G3 X35.9748 Y14.9129 I-0.2793 J2.215
G3 X36.3796 Y15.083 I-0.775 J2.4108
G3 X36.7489 Y15.3205 I-1.1798 J2.2407
G3 X37.0514 Y15.6028 I-1.3658 J1.7661
G3 X37.2965 Y15.9361 I-1.6682 J1.4838
G3 X37.4893 Y16.3307 I-2.1702 J1.3049
G3 X37.611 Y16.7526 I-2.363 J0.9104
G3 X37.6529 Y17.1642 I-2.1907 J0.4307
G3 X37.653 Y17.1832 I-2.2325 J0.0191
G3 X37.6181 Y17.5765 I-2.2326 J0
G3 X37.5035 Y18.0004 I-2.4928 J-0.446
G3 X37.3175 Y18.3981 I-2.3782 J-0.8699
G3 X37.0781 Y18.7356 I-1.9327 J-1.1176
G3 X36.7805 Y19.023 I-1.6933 J-1.4551
G3 X36.4153 Y19.2668 I-1.5831 J-1.9765
G2 X35.8218 Y19.6808 I1.6231 J2.9591
G2 X35.3302 Y20.2118 I2.2166 J2.545
G2 X34.9632 Y20.8354 I2.7082 J2.014
G2 X34.7374 Y21.5229 I3.0753 J1.3904
G3 X34.6558 Y21.7942 I-1.6806 J-0.3579
G3 X34.5356 Y22.0353 I-1.4327 J-0.5637
G3 X34.3752 Y22.2518 I-1.3125 J-0.8048
G3 X34.1705 Y22.4475 I-1.2859 J-1.1398
G3 X33.9364 Y22.607 I-1.0811 J-1.3356
G3 X33.6913 Y22.7188 I-0.7589 J-1.3396
G3 X33.4304 Y22.7861 I-0.5138 J-1.4514
G3 X33.1481 Y22.8095 I-0.2823 J-1.695
G1 X32.6481 Y22.8095
G3 X32.5231 Y22.6845 I0 J-0.125
G0 Z0.1
G0 X31.203 Y43.0064
G1 Z-0.38 F36
G3 X30.828 Y43.0072 I-0.2879 J-44.4598 F36
G3 X27.8021 Y42.8982 I0.0871 J-44.4606
G3 X24.4194 Y42.5303 I3.113 J-44.3516
G3 X23.732 Y42.3793 I0.7398 J-5.0092
G3 X23.0982 Y42.142 I1.3173 J-4.4844
G3 X22.5052 Y41.8157 I1.9512 J-4.2472
G3 X22.3938 Y41.7413 I2.7562 J-4.2477
G3 X22.0929 Y41.5177 I2.8676 J-4.1733
G3 X21.9429 Y41.3926 I3.1686 J-3.9497
G3 X21.4448 Y40.8956 I3.3185 J-3.8246
G3 X21.0381 Y40.3545 I3.523 J-3.0715
G3 X20.7138 Y39.7605 I3.9296 J-2.5305
G3 X20.4675 Y39.1013 I4.6086 J-2.0978
G3 X20.1615 Y37.8318 I12.1487 J-3.6
G3 X19.9929 Y36.565 I11.9249 J-2.2314
G3 X19.9545 Y35.6004 I12.0935 J-0.9646
G3 X19.9585 Y35.2874 I12.1319 J0
G3 X20.0595 Y33.9855 I12.6666 J0.3269
G3 X20.1307 Y33.658 I1.9501 J0.2528
G3 X20.1852 Y33.5068 I1.6673 J0.515
G3 X20.2515 Y33.3647 I1.6129 J0.6662
G3 X20.3643 Y33.1782 I1.5466 J0.8083
G3 X20.4233 Y33.0982 I1.4338 J0.9948
G3 X20.6515 Y32.8526 I1.5491 J1.2111
G3 X20.9181 Y32.6495 I1.3209 J1.4567
G3 X21.2002 Y32.5044 I0.9356 J1.473
G3 X21.5038 Y32.4129 I0.6536 J1.6181
G3 X21.8367 Y32.3739 I0.3943 J1.9264
G3 X22.1715 Y32.392 I0.0614 J1.9654
G3 X22.4802 Y32.4645 I-0.2426 J1.7281
G3 X22.7708 Y32.5916 I-0.5513 J1.6557
G3 X23.0497 Y32.7778 I-0.9486 J1.7224
G1 X24.9466 Y34.2972
G2 X25.347 Y34.5742 I2.1737 J-2.7139
G2 X25.7636 Y34.7817 I1.6262 J-2.7427
G2 X26.206 Y34.9264 I1.2095 J-2.9502
G2 X26.6856 Y35.0102 I0.8365 J-3.375
G2 X27.1722 Y35.0261 I0.357 J-3.4588
G2 X27.6348 Y34.9749 I-0.1189 J-3.1863
G2 X27.9145 Y34.9099 I-0.5815 J-3.1351
G2 X28.0851 Y34.8568 I-0.8611 J-3.0701
G2 X28.2689 Y34.7881 I-1.1251 J-3.2901
G2 X28.5336 Y34.6674 I-1.309 J-3.2213
G3 X29.4493 Y34.219 I16.1158 J31.7541
G3 X30.3774 Y33.7971 I15.2001 J32.2025
G3 X31.3305 Y33.4714 I2.4308 J5.5565
G3 X32.2693 Y33.322 I1.313 J5.2264
G3 X33.2198 Y33.3399 I0.3741 J5.3758
G3 X34.2088 Y33.5304 I-0.6487 J6.0302
G3 X35.5341 Y33.9992 I-2.8525 J10.1716
G3 X36.4041 Y34.4221 I-4.1778 J9.7028
G3 X36.7302 Y34.6071 I-5.0478 J9.28
G3 X36.7854 Y34.6399 I-5.3739 J9.095
G2 X37.2722 Y34.8845 I1.8919 J-3.1579
G2 X37.7649 Y35.0445 I1.2747 J-3.0868
G2 X38.2765 Y35.1264 I0.782 J-3.2468
G2 X38.8213 Y35.1302 I0.2981 J-3.6692
G2 X39.3607 Y35.0536 I-0.2467 J-3.673
G2 X39.8567 Y34.904 I-0.7131 J-3.2626
G2 X40.3236 Y34.6796 I-1.2091 J-3.1131
G2 X40.7733 Y34.372 I-1.8475 J-3.1841
G1 X42.1912 Y33.2397
G3 X42.1936 Y33.2378 I0.078 J0.0977
G1 X42.3918 Y33.0873
G3 X42.6076 Y32.9481 I1.0112 J1.3315
G3 X42.8326 Y32.849 I0.7242 J1.3389
G3 X43.0707 Y32.7874 I0.4991 J1.438
G3 X43.3263 Y32.7629 I0.2867 J1.6472
G3 X43.5826 Y32.7779 I0.0311 J1.6716
G3 X43.8228 Y32.8306 I-0.205 J1.5083
G3 X44.0514 Y32.9212 I-0.4452 J1.4556
G3 X44.2722 Y33.0522 I-0.7401 J1.4992
G3 X44.4478 Y33.1942 I-0.9609 J1.3682
G3 X44.4704 Y33.2155 I-1.1365 J1.2262
G3 X44.6332 Y33.3997 I-1.0552 J1.097
G3 X44.6894 Y33.4799 I-1.2181 J0.9128
G3 X44.7643 Y33.6078 I-1.2742 J0.8326
G3 X44.8654 Y33.8438 I-1.482 J0.774
G3 X44.9907 Y34.2834 I-4.3418 J1.4757
G3 X45.0717 Y34.7332 I-4.4671 J1.0361
G3 X45.1533 Y36.0054 I-9.8686 J1.2722
G3 X45.153 Y36.0817 I-9.9502 J0
G3 X45.0513 Y37.3781 I-9.2109 J-0.0706
G3 X44.768 Y38.6473 I-9.1091 J-1.3671
G3 X44.2944 Y39.9125 I-9.534 J-2.8478
G3 X44.0622 Y40.3553 I-4.0073 J-1.8191
G3 X43.7876 Y40.7582 I-3.5831 J-2.1469
G3 X43.4679 Y41.1263 I-3.3085 J-2.5498
G3 X43.0989 Y41.4637 I-3.1491 J-3.0743
G3 X43.0818 Y41.4775 I-2.78 J-3.4117
G3 X42.7803 Y41.7003 I-2.7629 J-3.4255
G3 X42.6939 Y41.7571 I-2.4614 J-3.6482
G3 X42.2688 Y41.9958 I-2.2542 J-3.5166
G3 X41.8188 Y42.1833 I-1.8291 J-3.7553
G3 X41.3381 Y42.3213 I-1.453 J-4.1541
G3 X38.539 Y42.7991 I-5.8426 J-25.7905
G3 X35.7047 Y42.974 I-3.0434 J-26.2683
G1 X33.4538 Y42.991
G1 X31.203 Y43.0064
G1 Z-0.76 F36
G1 Z-0.5 F36
G3 X30.828 Y43.0072 I-0.2879 J-44.4598 F36
G1 Z-0.76 F36
G3 X27.8021 Y42.8982 I0.0871 J-44.4606 F36
G3 X24.4194 Y42.5303 I3.113 J-44.3516
G3 X23.732 Y42.3793 I0.7398 J-5.0092
G3 X23.0982 Y42.142 I1.3173 J-4.4844
G3 X22.5052 Y41.8157 I1.9512 J-4.2472
G3 X22.3938 Y41.7413 I2.7562 J-4.2477
G1 Z-0.5 F36
G3 X22.0929 Y41.5177 I2.8676 J-4.1733 F36
G1 Z-0.76 F36
G3 X21.9429 Y41.3926 I3.1686 J-3.9497 F36
G3 X21.4448 Y40.8956 I3.3185 J-3.8246
G3 X21.0381 Y40.3545 I3.523 J-3.0715
G3 X20.7138 Y39.7605 I3.9296 J-2.5305
G3 X20.4675 Y39.1013 I4.6086 J-2.0978
G3 X20.1615 Y37.8318 I12.1487 J-3.6
G3 X19.9929 Y36.565 I11.9249 J-2.2314
G3 X19.9545 Y35.6004 I12.0935 J-0.9646
G3 X19.9585 Y35.2874 I12.1319 J0
G3 X20.0595 Y33.9855 I12.6666 J0.3269
G3 X20.1307 Y33.658 I1.9501 J0.2528
G3 X20.1852 Y33.5068 I1.6673 J0.515
G1 Z-0.5 F36
G3 X20.2515 Y33.3647 I1.6129 J0.6662 F36
G3 X20.3643 Y33.1782 I1.5466 J0.8083
G1 Z-0.76 F36
G3 X20.4233 Y33.0982 I1.4338 J0.9948 F36
G3 X20.6515 Y32.8526 I1.5491 J1.2111
G3 X20.9181 Y32.6495 I1.3209 J1.4567
G3 X21.2002 Y32.5044 I0.9356 J1.473
G3 X21.5038 Y32.4129 I0.6536 J1.6181
G3 X21.8367 Y32.3739 I0.3943 J1.9264
G3 X22.1715 Y32.392 I0.0614 J1.9654
G3 X22.4802 Y32.4645 I-0.2426 J1.7281
G3 X22.7708 Y32.5916 I-0.5513 J1.6557
G3 X23.0497 Y32.7778 I-0.9486 J1.7224
G1 X24.9466 Y34.2972
G2 X25.347 Y34.5742 I2.1737 J-2.7139
G2 X25.7636 Y34.7817 I1.6262 J-2.7427
G2 X26.206 Y34.9264 I1.2095 J-2.9502
G2 X26.6856 Y35.0102 I0.8365 J-3.375
G2 X27.1722 Y35.0261 I0.357 J-3.4588
G2 X27.6348 Y34.9749 I-0.1189 J-3.1863
G2 X27.9145 Y34.9099 I-0.5815 J-3.1351
G1 Z-0.5 F36
G2 X28.0851 Y34.8568 I-0.8611 J-3.0701 F36
G2 X28.2689 Y34.7881 I-1.1251 J-3.2901
G1 Z-0.76 F36
G2 X28.5336 Y34.6674 I-1.309 J-3.2213 F36
G3 X29.4493 Y34.219 I16.1158 J31.7541
G3 X30.3774 Y33.7971 I15.2001 J32.2025
G3 X31.3305 Y33.4714 I2.4308 J5.5565
G3 X32.2693 Y33.322 I1.313 J5.2264
G3 X33.2198 Y33.3399 I0.3741 J5.3758
G3 X34.2088 Y33.5304 I-0.6487 J6.0302
G3 X35.5341 Y33.9992 I-2.8525 J10.1716
G3 X36.4041 Y34.4221 I-4.1778 J9.7028
G1 Z-0.5 F36
G3 X36.7302 Y34.6071 I-5.0478 J9.28 F36
G1 Z-0.76 F36
G3 X36.7854 Y34.6399 I-5.3739 J9.095 F36
G2 X37.2722 Y34.8845 I1.8919 J-3.1579
G2 X37.7649 Y35.0445 I1.2747 J-3.0868
G2 X38.2765 Y35.1264 I0.782 J-3.2468
G2 X38.8213 Y35.1302 I0.2981 J-3.6692
G2 X39.3607 Y35.0536 I-0.2467 J-3.673
G2 X39.8567 Y34.904 I-0.7131 J-3.2626
G2 X40.3236 Y34.6796 I-1.2091 J-3.1131
G2 X40.7733 Y34.372 I-1.8475 J-3.1841
G1 X42.1912 Y33.2397
G3 X42.1936 Y33.2378 I0.078 J0.0977
G1 X42.3918 Y33.0873
G3 X42.6076 Y32.9481 I1.0112 J1.3315
G3 X42.8326 Y32.849 I0.7242 J1.3389
G3 X43.0707 Y32.7874 I0.4991 J1.438
G3 X43.3263 Y32.7629 I0.2867 J1.6472
G3 X43.5826 Y32.7779 I0.0311 J1.6716
G3 X43.8228 Y32.8306 I-0.205 J1.5083
G3 X44.0514 Y32.9212 I-0.4452 J1.4556
G3 X44.2722 Y33.0522 I-0.7401 J1.4992
G3 X44.4478 Y33.1942 I-0.9609 J1.3682
G1 Z-0.5 F36
G3 X44.4704 Y33.2155 I-1.1365 J1.2262 F36
G3 X44.6332 Y33.3997 I-1.0552 J1.097
G3 X44.6894 Y33.4799 I-1.2181 J0.9128
G1 Z-0.76 F36
G3 X44.7643 Y33.6078 I-1.2742 J0.8326 F36
G3 X44.8654 Y33.8438 I-1.482 J0.774
G3 X44.9907 Y34.2834 I-4.3418 J1.4757
G3 X45.0717 Y34.7332 I-4.4671 J1.0361
G3 X45.1533 Y36.0054 I-9.8686 J1.2722
G3 X45.153 Y36.0817 I-9.9502 J0
G3 X45.0513 Y37.3781 I-9.2109 J-0.0706
G3 X44.768 Y38.6473 I-9.1091 J-1.3671
G3 X44.2944 Y39.9125 I-9.534 J-2.8478
G3 X44.0622 Y40.3553 I-4.0073 J-1.8191
G3 X43.7876 Y40.7582 I-3.5831 J-2.1469
G3 X43.4679 Y41.1263 I-3.3085 J-2.5498
G3 X43.0989 Y41.4637 I-3.1491 J-3.0743
G3 X43.0818 Y41.4775 I-2.78 J-3.4117
G1 Z-0.5 F36
G3 X42.7803 Y41.7003 I-2.7629 J-3.4255 F36
G1 Z-0.76 F36
G3 X42.6939 Y41.7571 I-2.4614 J-3.6482 F36
G3 X42.2688 Y41.9958 I-2.2542 J-3.5166
G3 X41.8188 Y42.1833 I-1.8291 J-3.7553
G3 X41.3381 Y42.3213 I-1.453 J-4.1541
G3 X38.539 Y42.7991 I-5.8426 J-25.7905
G3 X35.7047 Y42.974 I-3.0434 J-26.2683
G1 X33.4538 Y42.991
G1 X31.203 Y43.0064
G0 Z0.1
G0 X27.347 Y25.3932
G1 Z-0.38 F36
G1 X27.722 Y25.3932 F36
G1 X28.847 Y25.3932
G3 X29.24 Y25.4456 I0 J1.5
G3 X29.6055 Y25.5991 I-0.393 J1.4476
G3 X29.918 Y25.843 I-0.7585 J1.2941
G3 X30.1558 Y26.1603 I-1.071 J1.0502
G3 X30.3021 Y26.5287 I-1.3087 J0.733
G3 X30.347 Y26.8932 I-1.455 J0.3645
G3 X30.3468 Y26.9226 I-1.5 J0
G2 X30.3458 Y27.0181 I4.8741 J0.0955
G2 X30.4236 Y27.8855 I4.875 J0
G2 X30.6888 Y28.8142 I4.7972 J-0.8673
G3 X30.7987 Y29.1716 I-2.2029 J0.873
G3 X30.847 Y29.5247 I-2.0884 J0.4656
G3 X30.8499 Y29.6373 I-2.1368 J0.1126
G3 X30.836 Y29.8809 I-2.1397 J0
G3 X30.7643 Y30.2478 I-2.3542 J-0.2698
G3 X30.6357 Y30.5989 I-2.2824 J-0.6367
G3 X30.4607 Y30.9093 I-1.9449 J-0.892
G3 X30.2366 Y31.1864 I-1.7699 J-1.2024
G3 X29.9576 Y31.4353 I-1.7119 J-1.6384
G3 X29.7464 Y31.5784 I-1.4329 J-1.8873
G3 X29.6429 Y31.6372 I-1.2217 J-2.0304
G3 X29.4105 Y31.7442 I-1.0097 J-1.8865
G3 X29.3158 Y31.7786 I-0.7773 J-1.9935
G3 X28.9698 Y31.8637 I-0.6826 J-2.0279
G3 X28.597 Y31.8932 I-0.3727 J-2.3401
G1 X27.597 Y31.8932
G3 X27.2243 Y31.8637 I0 J-2.3696
G3 X26.8783 Y31.7786 I0.3366 J-2.1131
G3 X26.5512 Y31.6372 I0.6826 J-2.0279
G3 X26.2365 Y31.4353 I1.1182 J-2.0892
G3 X25.9575 Y31.1864 I1.4329 J-1.8873
G3 X25.7334 Y30.9093 I1.5458 J-1.4795
G3 X25.5584 Y30.5989 I1.7699 J-1.2024
G3 X25.4298 Y30.2478 I2.1539 J-0.9878
G3 X25.3581 Y29.8809 I2.2824 J-0.6367
G3 X25.3441 Y29.6373 I2.1258 J-0.2436
G3 X25.3471 Y29.5247 I2.1397 J0
G3 X25.3954 Y29.1716 I2.1368 J0.1126
G3 X25.5053 Y28.8142 I2.3128 J0.5157
G2 X25.7705 Y27.8855 I-4.5321 J-1.7961
G2 X25.8483 Y27.0181 I-4.7972 J-0.8673
G2 X25.8473 Y26.9226 I-4.875 J0
G3 X25.847 Y26.8932 I1.4997 J-0.0294
G3 X25.892 Y26.5287 I1.5 J0
G3 X26.0383 Y26.1603 I1.455 J0.3645
G3 X26.276 Y25.843 I1.3087 J0.733
G3 X26.5886 Y25.5991 I1.071 J1.0502
G3 X26.9541 Y25.4456 I0.7585 J1.2941
G3 X27.347 Y25.3932 I0.393 J1.4476
G1 Z-0.76 F36
G1 Z-0.5 F36
G1 X27.722 Y25.3932 F36
G1 Z-0.76 F36
G1 X28.847 Y25.3932 F36
G3 X29.24 Y25.4456 I0 J1.5
G3 X29.6055 Y25.5991 I-0.393 J1.4476
G3 X29.918 Y25.843 I-0.7585 J1.2941
G3 X30.1558 Y26.1603 I-1.071 J1.0502
G3 X30.3021 Y26.5287 I-1.3087 J0.733
G3 X30.347 Y26.8932 I-1.455 J0.3645
G3 X30.3468 Y26.9226 I-1.5 J0
G2 X30.3458 Y27.0181 I4.8741 J0.0955
G2 X30.4236 Y27.8855 I4.875 J0
G2 X30.6888 Y28.8142 I4.7972 J-0.8673
G3 X30.7987 Y29.1716 I-2.2029 J0.873
G3 X30.847 Y29.5247 I-2.0884 J0.4656
G3 X30.8499 Y29.6373 I-2.1368 J0.1126
G3 X30.836 Y29.8809 I-2.1397 J0
G3 X30.7643 Y30.2478 I-2.3542 J-0.2698
G3 X30.6357 Y30.5989 I-2.2824 J-0.6367
G3 X30.4607 Y30.9093 I-1.9449 J-0.892
G3 X30.2366 Y31.1864 I-1.7699 J-1.2024
G3 X29.9576 Y31.4353 I-1.7119 J-1.6384
G3 X29.7464 Y31.5784 I-1.4329 J-1.8873
G1 Z-0.5 F36
G3 X29.6429 Y31.6372 I-1.2217 J-2.0304 F36
G3 X29.4105 Y31.7442 I-1.0097 J-1.8865
G1 Z-0.76 F36
G3 X29.3158 Y31.7786 I-0.7773 J-1.9935 F36
G3 X28.9698 Y31.8637 I-0.6826 J-2.0279
G3 X28.597 Y31.8932 I-0.3727 J-2.3401
G1 X27.597 Y31.8932
G3 X27.2243 Y31.8637 I0 J-2.3696
G3 X26.8783 Y31.7786 I0.3366 J-2.1131
G3 X26.5512 Y31.6372 I0.6826 J-2.0279
G3 X26.2365 Y31.4353 I1.1182 J-2.0892
G3 X25.9575 Y31.1864 I1.4329 J-1.8873
G3 X25.7334 Y30.9093 I1.5458 J-1.4795
G3 X25.5584 Y30.5989 I1.7699 J-1.2024
G3 X25.4298 Y30.2478 I2.1539 J-0.9878
G3 X25.3581 Y29.8809 I2.2824 J-0.6367
G3 X25.3441 Y29.6373 I2.1258 J-0.2436
G3 X25.3471 Y29.5247 I2.1397 J0
G3 X25.3954 Y29.1716 I2.1368 J0.1126
G3 X25.5053 Y28.8142 I2.3128 J0.5157
G2 X25.7705 Y27.8855 I-4.5321 J-1.7961
G2 X25.8483 Y27.0181 I-4.7972 J-0.8673
G2 X25.8473 Y26.9226 I-4.875 J0
G3 X25.847 Y26.8932 I1.4997 J-0.0294
G3 X25.892 Y26.5287 I1.5 J0
G3 X26.0383 Y26.1603 I1.455 J0.3645
G3 X26.276 Y25.843 I1.3087 J0.733
G3 X26.5886 Y25.5991 I1.071 J1.0502
G3 X26.9541 Y25.4456 I0.7585 J1.2941
G3 X27.347 Y25.3932 I0.393 J1.4476
G0 Z0.1
M5
M30
